ncols         108
nrows         54
xllcorner     -180
yllcorner     -90
cellsize      3.333332
NODATA_value  -9999
-9999 -9999 -9999 -9999 -9999 -9999 -9999 -9999 -9999 -9999 -9999 -9999 -9999 -9999 -9999 -9999 -9999 -9999 -9999 -9999 -9999 -9999 -9999 -9999 -9999 -9999 -9999 -9999 -9999 -9999 -9999 -9999 -9999 -9999 -9999 -9999 -9999 -9999 -9999 -9999 -9999 -9999 -9999 -9999 -9999 -9999 -9999 -9999 -9999 -9999 -9999 -9999 -9999 -9999 -9999 -9999 -9999 -9999 -9999 -9999 -9999 -9999 -9999 -9999 -9999 -9999 -9999 -9999 -9999 -9999 -9999 -9999 -9999 -9999 -9999 -9999 -9999 -9999 -9999 -9999 -9999 -9999 -9999 -9999 -9999 -9999 -9999 -9999 -9999 -9999 -9999 -9999 -9999 -9999 -9999 -9999 -9999 -9999 -9999 -9999 -9999 -9999 -9999 -9999 -9999 -9999 -9999 -9999
-9999 -9999 -9999 -9999 -9999 -9999 -9999 -9999 -9999 -9999 -9999 -9999 -9999 -9999 -9999 -9999 -9999 -9999 -9999 -9999 -9999 -9999 -9999 -9999 -9999 -9999 -9999 -9999 -9999 -9999 -9999 -9999 -9999 -9999 -9999 -9999 -9999 -9999 -9999 -9999 -9999 -9999 0 0 0 0 -9999 -9999 -9999 -9999 -9999 -9999 -9999 -9999 -9999 -9999 -9999 -9999 -9999 -9999 -9999 -9999 -9999 -9999 -9999 -9999 -9999 -9999 -9999 -9999 -9999 -9999 -9999 -9999 -9999 -9999 -9999 -9999 -9999 -9999 -9999 -9999 -9999 -9999 -9999 -9999 -9999 -9999 -9999 -9999 -9999 -9999 -9999 -9999 -9999 -9999 -9999 -9999 -9999 -9999 -9999 -9999 -9999 -9999 -9999 -9999 -9999 -9999
-9999 -9999 -9999 -9999 -9999 -9999 -9999 -9999 -9999 -9999 -9999 -9999 -9999 -9999 -9999 -9999 -9999 -9999 -9999 -9999 -9999 -9999 -9999 -9999 0 0 0 0 0 0 0 0 0 0 0 0 0 0 0 0 0 0 0 0 0 0 0 0 0 0 0 -9999 -9999 -9999 -9999 -9999 -9999 -9999 -9999 -9999 -9999 -9999 -9999 -9999 -9999 -9999 -9999 -9999 -9999 -9999 -9999 -9999 -9999 -9999 -9999 -9999 -9999 -9999 -9999 -9999 -9999 -9999 -9999 -9999 -9999 -9999 -9999 -9999 -9999 -9999 -9999 -9999 -9999 -9999 -9999 -9999 -9999 -9999 -9999 -9999 -9999 -9999 -9999 -9999 -9999 -9999 -9999 -9999
-9999 -9999 -9999 -9999 -9999 -9999 -9999 -9999 -9999 -9999 -9999 -9999 -9999 -9999 -9999 -9999 -9999 0 0 0 0 0 0 0 0 0 0 0 0 0 0 0 6.07421 5.47105 2.46444 0 0 0 0 0 0 0 0 0 0 0 0 0 0 -9999 -9999 -9999 -9999 -9999 -9999 -9999 -9999 31.1257 99.8811 85.3635 34.4938 29.9643 -9999 -9999 -9999 -9999 -9999 -9999 -9999 -9999 -9999 -9999 -9999 -9999 0 -9999 -9999 -9999 -9999 -9999 -9999 -9999 0 0 1.43863 0 0.785359 -9999 -9999 -9999 -9999 -9999 -9999 -9999 -9999 -9999 -9999 -9999 -9999 -9999 -9999 -9999 -9999 -9999 -9999 -9999 -9999 -9999
-9999 -9999 -9999 -9999 -9999 -9999 -9999 -9999 -9999 -9999 -9999 -9999 -9999 -9999 -9999 -9999 0 0 0 0 0 0 0 0 0 2.02805 0 0 0 5.39736 0 -9999 -9999 0 6.47865 0 0 0 0 0 0 0 0 0 0 0 0 0 0 -9999 -9999 -9999 -9999 -9999 -9999 -9999 -9999 -9999 -9999 -9999 -9999 -9999 -9999 -9999 -9999 -9999 -9999 -9999 -9999 -9999 6.63674 43.8488 8.08285 15.0249 0 -9999 -9999 -9999 0 9.82231 0.0163739 31.5031 0 2.90455 2.04507 4.2655 29.7773 23.7315 0.917657 0 -9999 0 0 -9999 0 4.6489 0.99237 0 4.35901 0 -9999 -9999 -9999 -9999 -9999 -9999 -9999 -9999
3.53887 -9999 -9999 -9999 -9999 0.384525 45.3338 19.5174 69.4014 135.651 3.17372 0 -9999 -9999 0 0 1.10699 0 1.87748 0 0 0 0 0 0 0 0 0 4.2307 0 7.91432 0 0 12.3893 -9999 -9999 -9999 17.0818 45.3035 0 0 0 0 0 0 0 0 22.189 -9999 -9999 -9999 -9999 -9999 -9999 -9999 -9999 -9999 -9999 -9999 131.056 266.824 687.786 1160.24 144.149 -9999 -9999 -9999 -9999 -9999 68.656 186.092 7.08234 -9999 -9999 6.79375 7.53205 6.01321 9.86662 39.6155 23.4851 58.7834 35.8508 362.079 118.884 27.6863 33.2548 13.8566 128.148 330.89 88.5845 117.768 105.511 122.296 67.0678 304.6 125.232 146.719 89.9117 193.312 2.89631 45.1864 137.333 0 -9999 -9999 0 -9999 0.289799
42.654 17.5995 7.0091 -9999 65.8604 183.379 231.79 109.984 143.453 92.8158 56.682 3.40367 0.473522 13.7854 1.0409 0 3.92821 0 0 56.6273 0 2.04314 18.04 0 0 3.70921 0 1.50074 1.44426 1.84425 0 0 0 0 5.60099 0 -9999 70.1676 47.7993 0 0 0 0 0 0 0 0 -9999 -9999 -9999 -9999 -9999 -9999 -9999 -9999 -9999 -9999 157.039 17507.9 11560.3 10616.1 6724.52 6277.18 10136.1 8948.21 4999.23 733.015 209.081 396.228 953.262 459.458 255.268 720.529 973.36 92.4094 56.1078 26.2749 34.73 92.5926 697.563 370.176 49.2057 69.6884 30.4229 137.195 117.219 105.568 146.678 273.982 138.07 464.437 448.734 31.0489 533.107 518.76 176.3 248.429 603.433 503.12 386.925 667.117 197.107 237.519 56.1909 28.7875 97.3731 27.5802 23.9128
20.8392 34.0719 74.9642 97.1256 127.136 297.236 286.161 320.16 337.254 1013.75 738.868 198.677 14.7043 2.60266 0 5.89202 13.2814 1.09786 0.000924272 1.88744 0 0 0 0 0 14.891 1.17211 1.30233 15.2151 7.04095 0 0 0 12.9903 5.85242 0 -9999 12.8918 61.7205 0 0 0 0 0 -9999 -9999 1209.91 31940.5 8799.79 7598.35 -9999 -9999 -9999 -9999 -9999 -9999 7117.83 38799.9 25528.3 16143.6 19076.2 37329.6 22581.2 14447.7 8864.24 6243.73 13263.6 11712.8 4991.37 3685.42 4630.86 2481.85 1200.78 744.931 570.917 335.651 271.999 182.174 78.1655 1150.78 2205.08 5.21217 7.20064 22.7589 29.9936 215.979 684.841 1395.59 792.204 2003.62 2194 1449.81 626.503 754.116 336.915 60.2559 302.863 364.478 421.363 1241.98 674.701 1202.12 497.374 41.7984 101.449 42.047 36.1057 59.6578
-9999 -9999 0 24.3708 1142.12 989.964 316.272 196.143 1190.46 1009.58 209.003 327.474 21.4723 57.8039 11.123 8.36872 23.1842 26.7177 18.2154 73.6223 39.6895 0.0010168 0 1.2787 0 10.6594 7.80511 -9999 0 0 11.5934 3.58083 21.0755 12.031 0 -9999 -9999 -9999 39.5111 47.4872 757.435 68.1801 -9999 -9999 -9999 -9999 -9999 -9999 -9999 -9999 -9999 152.292 18.0363 6823.66 -9999 70449.8 107145 153496 148580 82698.2 72638.4 177186 87551.3 64138 38854 34567.2 40289.1 44233.6 28337.2 9027.82 25811.2 23958.5 15683.8 1410.88 1184.91 1621.16 1095.68 2006.34 807.047 2096.53 6327.96 2694.38 634.678 152.118 159.161 2276.34 4111.41 1719.67 2156.09 1905.57 1458.23 1545.49 2957.65 2517.21 2053.05 877.689 1898 1103.06 2690.48 2502.92 1442.69 602.671 675.965 215.998 200.598 88.3621 42.5305 9.12975
-9999 -9999 -9999 5.57351 53.3538 260.729 291.167 160.184 450.771 0.981113 -9999 0 49.4291 477.591 132.721 43.4674 36.6196 238.74 289.247 230.681 712.969 13.6802 37.4918 17.2714 5.5664 6.35615 0 0 -9999 0 8.15914 0 0 25.9641 7.02613 0 -9999 -9999 -9999 -9999 -9999 -9999 -9999 -9999 -9999 -9999 -9999 -9999 -9999 -9999 -9999 7971.24 219949 204597 -9999 41723 161633 346167 422469 182354 15550.6 84503.4 230117 353780 162321 218861 211780 158275 138281 142466 123922 84192.9 107740 77770.3 46847.9 32042.8 15991.5 10963 12229.8 19550.8 11944 21947.8 17171.2 31170.4 28989.9 9303.19 10004 8395.37 9008.73 4722.39 1081.61 942.63 639.371 1793.52 1232.6 1579.06 2672.9 996.803 1649.27 1611.96 84.9803 694.35 1452.6 20.3457 -9999 0 -9999 -9999
-9999 -9999 -9999 6.3309 32.6475 125.289 18.9013 -9999 -9999 -9999 -9999 -9999 -9999 57.9355 729.814 1116.97 952.9 1119.74 660.411 1451.89 2147.48 692.372 427.784 185.868 77.4848 89.0917 97.7465 197.142 56.4222 5.71739 481.692 126.845 249.313 18.4176 142.803 30.9117 11.6318 0.657899 -9999 -9999 -9999 -9999 -9999 -9999 -9999 -9999 -9999 -9999 -9999 -9999 8872.02 1.04224e+06 755585 1.28556e+06 11716.8 36256.3 772629 1.12677e+06 411107 501491 320271 238267 328056 313021 466397 895248 357348 368849 273524 275646 243294 101565 147704 122614 80022.2 70974.6 91475.3 63953.2 89834.3 139811 69975.5 50284.6 18423.3 21674.6 28683.7 10330.3 5600.49 5306.95 5615.73 4937.97 8425.43 8078.14 3929.36 1093.8 962.447 1173.89 1033.1 -9999 -9999 -9999 1135.36 3911.69 2700.79 20.8362 -9999 -9999 -9999 -9999
10.9212 22.9404 -9999 4.20924 -9999 -9999 -9999 -9999 -9999 -9999 -9999 -9999 -9999 -9999 25.761 276.89 912.538 4028.92 2099.11 2982.61 3522.97 3398.8 3784.74 3667.02 2788.41 997.92 1639.21 929.868 73.9031 133.783 265.194 244.654 0 467.652 416.901 495.784 340.591 263.151 -9999 -9999 -9999 -9999 -9999 -9999 -9999 -9999 -9999 -9999 -9999 -9999 21072.5 1.18197e+06 976390 2.81639e+06 1.82227e+06 4.13643e+06 3.90655e+06 3.07846e+06 2.50054e+06 2.18947e+06 1.57234e+06 504587 391348 588408 539254 456638 381064 225829 180314 105790 101579 91871.3 108067 94187.7 65965 86806.3 56928.2 65802.3 93234.4 74902.5 41775.2 19377.9 10136.7 14912.2 17757.1 31581.8 29265.1 15961.2 36274.2 29552.8 57546.1 88061.2 46096.8 5221.09 4859.46 9525.94 8777.83 51.8987 -9999 -9999 1036.79 1502.66 0 -9999 -9999 -9999 -9999 -9999
-9999 -9999 -9999 -9999 -9999 -9999 -9999 -9999 -9999 -9999 -9999 -9999 -9999 -9999 -9999 31.9746 1142.09 1654.43 2188.38 2653.45 2894.77 1614.43 1992.51 2345.15 4263.94 2226.35 2243.55 2152.67 3244.76 3614.48 8538.62 3234.91 9740.79 10745.4 4147.63 108.648 1224.5 4037.29 458.337 -9999 -9999 -9999 -9999 -9999 -9999 -9999 -9999 -9999 -9999 -9999 -9999 -9999 461192 2.85713e+06 4.17297e+06 3.34948e+06 3.81307e+06 2.05747e+06 2.55526e+06 2.7986e+06 1.4717e+06 868277 1.04355e+06 553240 671879 915447 249553 91926.8 40850.1 36475.5 31739.8 19862.9 22698.8 34805 44928.5 144637 78469.6 49604.5 46250.2 47073.5 66725.5 48790.9 38783.3 31977.7 46675.7 198344 20234.3 19342.2 31100.5 133079 133530 429752 287651 149742 56841.8 7255.54 3537.98 412.734 -9999 7.74544 19.1067 -9999 -9999 -9999 -9999 -9999 -9999 -9999
-9999 -9999 -9999 -9999 -9999 -9999 -9999 -9999 -9999 -9999 -9999 -9999 -9999 -9999 -9999 -9999 438.393 1849.73 1704.88 1930.16 2130.13 1848.61 1353.84 1530.11 2133.62 2108.93 5606.2 4636.24 1407.59 11021.3 20291.8 24086.4 55821.9 24732.4 8270.41 4840.31 51.7484 2.71258 0 -9999 -9999 -9999 -9999 -9999 -9999 -9999 -9999 -9999 -9999 -9999 -9999 105498 144494 1.26524e+06 3.44684e+06 3.41837e+06 3.63789e+06 3.43842e+06 956423 1.0431e+06 1.17434e+06 1.18717e+06 683089 68269.5 154103 185351 265694 199797 55435.5 3946.25 10314.6 20711.7 13871 26908.7 78121.4 47067.6 59221 141927 105730 72362.6 45697.6 36443.7 26169.6 17774.2 30106.8 18365.2 16296.3 49844.3 174290 161551 609707 1.67825e+06 547726 176635 44297.4 1802.62 218666 133019 203.309 3.55561 -9999 -9999 -9999 -9999 -9999 -9999 -9999 -9999
-9999 -9999 -9999 -9999 -9999 -9999 -9999 -9999 -9999 -9999 -9999 -9999 -9999 -9999 -9999 -9999 1727.23 4973.85 663.35 1633.2 2925.53 1559.46 3876.58 4036.36 6393.62 10538.1 9425.82 5920.4 4559.91 15819.2 16451.7 27319.3 107720 136.405 -9999 -9999 -9999 -9999 -9999 -9999 -9999 -9999 -9999 -9999 -9999 -9999 -9999 -9999 -9999 -9999 -9999 1.84349e+06 1.38528e+06 1.3735e+06 1.49325e+06 85065.4 298723 1.54203e+06 2.43095e+06 847645 989636 870637 1.19085e+06 583975 684928 564369 701935 955922 349020 8599.62 14540.5 101141 128617 90898.5 662657 698903 210393 85436.1 108745 79009.7 41264.7 20328.3 92684.9 55961.3 10418.8 43787.9 150855 295279 1.47575e+06 1.29758e+06 1.65585e+06 1.61008e+06 648336 89165.7 1583.03 35751.3 934317 145486 -9999 -9999 -9999 -9999 -9999 -9999 -9999 -9999 -9999 -9999
-9999 -9999 -9999 -9999 -9999 -9999 -9999 -9999 -9999 -9999 -9999 -9999 -9999 -9999 -9999 -9999 555.901 12628.9 2699.36 785.622 1784.96 4589.98 5883.53 9388.8 19959 15559.6 4420.42 8264.15 21953.9 39896 75169.7 40234.2 -9999 -9999 -9999 -9999 -9999 -9999 -9999 -9999 -9999 -9999 -9999 -9999 -9999 -9999 -9999 -9999 -9999 -9999 -9999 930260 1.45532e+06 1.34662e+06 179982 94902.1 393325 407266 1.37297e+06 123686 538030 464218 1.42248e+06 650118 981138 1.05094e+06 771522 500016 757342 72210.9 210675 127965 63580.3 288393 548384 149896 70105.7 93407.1 30786.6 14959.5 11679.4 20737.7 46879.2 144735 291107 418879 684794 1.79729e+06 3.42488e+06 3.32201e+06 1.32015e+06 1.43198e+06 1.74274e+06 -9999 0 2.43057e+06 2.01964e+06 -9999 -9999 -9999 -9999 -9999 -9999 -9999 -9999 -9999 -9999 -9999
-9999 -9999 -9999 -9999 -9999 -9999 -9999 -9999 -9999 -9999 -9999 -9999 -9999 -9999 -9999 -9999 -9999 3407.06 8212.03 2305.53 1505.24 6986.67 8568.21 11497.3 4618.7 6459.39 9552.57 9178.89 20343.7 17879 10104.2 521.911 -9999 -9999 -9999 -9999 -9999 -9999 -9999 -9999 -9999 -9999 -9999 -9999 -9999 -9999 -9999 -9999 -9999 -9999 -9999 351270 791523 170238 451543 407281 510108 246038 70120 -9999 38714.3 78691.7 36238.2 119981 949455 534625 237008 351735 658037 1.20481e+06 98268.2 181960 260733 282365 981793 1.78065e+06 984953 304746 19652.9 15724.9 14466.2 22880.6 36159.8 77994.7 241505 879689 1.39798e+06 3.24372e+06 5.89733e+06 6.57332e+06 644812 233662 2.37228e+06 2.89392e+06 6.9059e+06 6.36718e+06 1.13679e+06 -9999 -9999 -9999 -9999 -9999 -9999 -9999 -9999 -9999 -9999 -9999
-9999 -9999 -9999 -9999 -9999 -9999 -9999 -9999 -9999 -9999 -9999 -9999 -9999 -9999 -9999 -9999 -9999 -9999 1463.7 10255.7 12268.3 15499 10270.8 10000.6 18319.3 20152.9 22068.1 5614.66 14926.7 10928.3 321.73 -9999 -9999 -9999 -9999 -9999 -9999 -9999 -9999 -9999 -9999 -9999 -9999 -9999 -9999 -9999 -9999 -9999 95098.1 -9999 -9999 436449 231974 65790.2 43549.8 58866.7 20160.4 170498 161102 13412.2 113556 16332.3 198637 2.47073e+06 489748 148910 38321.5 403697 501626 359393 88282.9 66881.7 95577 226180 512070 4.06886e+06 6.90463e+06 2.29686e+06 54593.6 18369.7 20311.2 26454.5 34819.4 395214 795009 2.80066e+06 2.39237e+06 2.82153e+06 3.6551e+06 5.20174e+06 3.44179e+06 17067.3 261060 2.75184e+06 0 12534 -9999 -9999 -9999 -9999 -9999 -9999 -9999 -9999 -9999 -9999 -9999 -9999
-9999 -9999 -9999 -9999 -9999 -9999 -9999 -9999 -9999 -9999 -9999 -9999 -9999 -9999 -9999 -9999 -9999 -9999 -9999 5224.29 15760 51643.4 34138.7 70834.6 18138.6 4320 2193.25 181.356 221.881 7298.55 277.983 -9999 -9999 -9999 -9999 -9999 -9999 -9999 -9999 -9999 -9999 -9999 -9999 -9999 -9999 -9999 -9999 -9999 40652.3 96925.1 12864.4 114507 26440 4459.26 48524.5 27798.7 16649.2 10348.4 16690.3 4627.74 8517.93 1157.31 21968.9 1.24024e+06 38284.9 77061.3 41303.5 78311.1 205168 154632 198676 99019.1 64497.1 161198 1.29102e+06 2.44622e+06 2.58781e+06 1.13129e+07 7.41177e+06 3.74522e+06 1.22493e+06 258272 800953 372210 1.45499e+06 2.76698e+06 2.47877e+06 3.37333e+06 2.38227e+06 3.15108e+06 1.78219e+06 -9999 129966 -9999 -9999 -9999 -9999 -9999 -9999 -9999 -9999 -9999 -9999 -9999 -9999 -9999 -9999 -9999
-9999 -9999 -9999 -9999 -9999 -9999 -9999 -9999 -9999 -9999 -9999 -9999 -9999 -9999 -9999 -9999 -9999 -9999 -9999 -9999 8434.37 63188.1 87366.4 145559 79254.8 -9999 -9999 -9999 -9999 1076 4037.24 583.667 -9999 -9999 -9999 -9999 -9999 -9999 -9999 -9999 -9999 -9999 -9999 -9999 -9999 -9999 -9999 -9999 -9999 58.6998 4344.83 2111.26 10955.2 989.107 1874.93 3774.88 4037.61 4181.98 6172.38 2252.55 1349.74 517.712 1124.51 536985 1968.95 72887.2 102925 278838 221440 60094.6 83318.4 138970 57123.1 81372.7 1.53817e+06 1.87281e+06 4.53089e+06 6.91262e+06 1.0671e+07 1.62696e+07 1.59147e+07 6.84635e+06 819521 485450 1.03467e+06 1.24104e+06 1.86446e+06 2.71786e+06 2.92011e+06 1.5238e+06 709153 67808.5 79109.9 -9999 -9999 -9999 -9999 -9999 -9999 -9999 -9999 -9999 -9999 -9999 -9999 -9999 -9999 -9999
-9999 -9999 -9999 -9999 -9999 586.423 14613.7 19872.1 -9999 -9999 -9999 -9999 -9999 -9999 -9999 -9999 -9999 -9999 -9999 -9999 131.504 684.861 261682 728384 415832 218.806 7233.96 106840 7891.21 51293 22366.5 16670.2 109.935 -9999 -9999 -9999 -9999 -9999 -9999 -9999 -9999 -9999 -9999 -9999 -9999 -9999 -9999 -9999 1072.79 8037.8 2785.66 6266.08 20589 42690.7 30836.9 168.408 1204.23 3003.63 2360.83 2934.39 2187.02 6770.57 12573.1 29700.3 123557 157804 354120 85954.8 26130.1 123.959 16795.7 97440.1 -9999 -9999 450641 3.34795e+06 5.84604e+06 4.93031e+06 3.04352e+06 5.75143e+06 7.07982e+06 3.66049e+06 1.14671e+06 438596 554768 1.16403e+06 968285 2.17579e+06 1.04115e+06 6249.59 283013 -9999 -9999 -9999 -9999 -9999 -9999 -9999 -9999 -9999 -9999 -9999 -9999 -9999 -9999 -9999 -9999 -9999
-9999 -9999 -9999 -9999 -9999 -9999 -9999 24158.6 -9999 -9999 -9999 -9999 -9999 -9999 -9999 -9999 -9999 -9999 -9999 -9999 -9999 -9999 99022.4 367356 947747 216657 74259.3 25855 -9999 -9999 64319.4 17412.9 109608 36764.6 12783.6 23238.9 -9999 -9999 -9999 -9999 -9999 -9999 -9999 -9999 -9999 -9999 7447.14 295.297 -9999 61696.2 53067.9 27161 4840.33 35000.7 180503 34360.5 8072.32 1564.16 1911.46 5723.76 5061.63 2441.32 13416.4 33639.6 176404 77551.8 218591 162259 13047.4 22081.5 21219.2 1723.71 -9999 -9999 -9999 519881 6.12302e+06 6.39023e+06 4.22302e+06 1.36456e+06 -9999 343.495 1.62524e+06 600638 447283 473146 598697 333116 -9999 -9999 133001 -9999 -9999 -9999 -9999 -9999 -9999 -9999 -9999 -9999 -9999 -9999 -9999 -9999 -9999 -9999 -9999 -9999
-9999 -9999 -9999 -9999 -9999 -9999 -9999 -9999 -9999 -9999 -9999 -9999 -9999 -9999 -9999 -9999 -9999 -9999 -9999 -9999 -9999 -9999 -9999 -9999 63747 67624 605843 293121 26441.1 20.0942 -9999 -9999 -9999 -9999 -9999 85250.3 -9999 -9999 -9999 -9999 -9999 -9999 -9999 -9999 -9999 -9999 11687.9 569.631 178563 312520 184900 150342 323225 292987 391705 194720 275708 81761.7 71298.4 66903.5 110931 164465 197170 608926 544052 266684 347454 1.35968e+06 134462 20376.9 -9999 -9999 -9999 -9999 -9999 392.78 4.32696e+06 6.25938e+06 1.06209e+06 -9999 -9999 722.174 319725 426538 1.10974e+06 529641 330839 -9999 -9999 12920.2 544886 19156.8 -9999 -9999 -9999 -9999 -9999 -9999 -9999 -9999 -9999 -9999 -9999 -9999 -9999 -9999 -9999 -9999
-9999 -9999 -9999 -9999 -9999 -9999 -9999 -9999 -9999 -9999 -9999 -9999 -9999 -9999 -9999 -9999 -9999 -9999 -9999 -9999 -9999 -9999 -9999 -9999 -9999 -9999 -9999 18995.1 66854.8 31.7664 -9999 60698.3 40435 130998 47289.3 46225.3 80000 -9999 -9999 -9999 -9999 -9999 -9999 -9999 -9999 -9999 -9999 -9999 1354.3 374643 487367 386558 503561 1.23916e+06 914290 1.17685e+06 3.26414e+06 1.27947e+06 751823 173157 155362 175275 337652 502435 444063 437590 153209 320908 28437.1 14091.9 34025.3 -9999 -9999 -9999 -9999 -9999 3.47614e+06 1.21264e+07 315550 -9999 -9999 13194.4 -9999 284862 208828 1.97634e+06 553288 -9999 -9999 5470.74 102491 137754 -9999 -9999 -9999 -9999 -9999 -9999 -9999 -9999 -9999 -9999 -9999 -9999 -9999 -9999 -9999 -9999
-9999 -9999 -9999 -9999 -9999 -9999 -9999 -9999 -9999 -9999 -9999 -9999 -9999 -9999 -9999 -9999 -9999 -9999 -9999 -9999 -9999 -9999 -9999 -9999 -9999 -9999 -9999 -9999 13692.3 33176.1 29220 172999 128349 105412 62680.8 18853.8 33714.2 -9999 -9999 -9999 -9999 -9999 -9999 -9999 -9999 -9999 -9999 -9999 -9999 34488.1 199050 468841 390370 681097 2.52521e+06 2.84354e+06 2.00054e+06 956602 404979 206780 14118.6 151578 328568 158844 245961 606170 169338 201056 73320.3 7705.54 -9999 -9999 -9999 -9999 -9999 -9999 601921 3.74293e+06 985985 -9999 -9999 117.729 2150.48 157110 79721.7 222132 0 -9999 41.982 7528.91 57579.8 181690 -9999 -9999 -9999 -9999 -9999 -9999 -9999 -9999 -9999 -9999 -9999 -9999 -9999 -9999 -9999 -9999
-9999 -9999 -9999 -9999 -9999 -9999 -9999 -9999 -9999 -9999 -9999 -9999 -9999 -9999 -9999 -9999 -9999 -9999 -9999 -9999 -9999 -9999 -9999 -9999 -9999 -9999 -9999 -9999 -9999 -9999 24753.1 340366 41626.3 3589.93 2773.44 3288.73 55008.8 15279.2 1043.61 -9999 -9999 -9999 -9999 -9999 -9999 -9999 -9999 -9999 -9999 -9999 91484.8 200820 599831 988170 1.56736e+06 2.12257e+06 3.74475e+06 800735 119855 203056 184601 202000 290465 334714 287403 243485 136288 141384 52904.1 -9999 -9999 -9999 -9999 -9999 -9999 -9999 -9999 4713.49 330127 -9999 -9999 -9999 55679.6 148492 402078 3926 1274.92 253.448 41772.5 31160.2 19150.6 30112.3 5350.08 -9999 -9999 -9999 -9999 -9999 -9999 -9999 -9999 -9999 -9999 -9999 -9999 -9999 -9999 -9999
-9999 -9999 -9999 -9999 -9999 -9999 -9999 -9999 -9999 -9999 -9999 -9999 -9999 -9999 -9999 -9999 -9999 -9999 -9999 -9999 -9999 -9999 -9999 -9999 -9999 -9999 21.3812 -9999 -9999 576.49 112310 48395.4 5362.94 586.334 1493.24 387.632 11919.4 1886.33 1631.92 2.30705 -9999 -9999 -9999 -9999 -9999 -9999 -9999 -9999 -9999 -9999 -9999 -9999 -9999 -9999 -9999 2941.83 34799.4 202928 93667 160809 316237 334414 507294 1.0618e+06 933122 200246 112795 268119 567.779 -9999 -9999 -9999 -9999 -9999 -9999 -9999 -9999 -9999 -9999 -9999 -9999 -9999 2707.71 413473 227852 31015.3 21803.6 86932.8 61143.3 14544.4 55097.3 66293.3 43694.9 -9999 -9999 -9999 -9999 -9999 -9999 -9999 -9999 -9999 -9999 -9999 -9999 -9999 -9999 -9999
-9999 -9999 -9999 -9999 -9999 -9999 -9999 -9999 -9999 -9999 -9999 -9999 -9999 -9999 -9999 -9999 -9999 -9999 -9999 -9999 -9999 -9999 -9999 -9999 -9999 -9999 295.773 32.0718 -9999 64294.3 311908 19070.7 5089.81 209.769 59.5288 102.726 747.992 4297.26 4643.54 4874.17 1849.34 1389.01 288.571 -9999 -9999 -9999 -9999 -9999 -9999 -9999 -9999 -9999 -9999 -9999 -9999 -9999 20538.4 101544 60070.6 214760 334264 319543 1.61185e+06 878341 798458 686481 53723.6 -9999 -9999 -9999 -9999 -9999 -9999 -9999 -9999 -9999 -9999 -9999 -9999 -9999 -9999 -9999 -9999 31524.3 324021 188763 33512.2 70404.8 128927 148111 127342 7912.42 22658.4 27453 18963.1 26105.5 11473 1058.65 8089.52 56222.4 -9999 -9999 -9999 -9999 -9999 -9999 -9999 -9999
-9999 -9999 -9999 -9999 -9999 -9999 -9999 -9999 -9999 -9999 -9999 -9999 -9999 -9999 -9999 -9999 -9999 -9999 -9999 -9999 -9999 -9999 -9999 -9999 -9999 -9999 -9999 -9999 -9999 78457.2 165171 11276.8 5340.84 81.7267 54.4031 78.6708 763.912 3627.35 4696.02 7343.8 3726.98 9724.71 23554.7 13957.1 -9999 -9999 -9999 -9999 -9999 -9999 -9999 -9999 -9999 -9999 -9999 -9999 -9999 193960 728558 132990 529767 428415 618058 275163 297239 754483 26.4072 -9999 -9999 -9999 -9999 -9999 -9999 -9999 -9999 -9999 -9999 -9999 -9999 -9999 -9999 -9999 -9999 -9999 62033 559115 702388 64277.2 45417.3 139147 138485 2494.81 6337.72 6585.74 20781.5 40078.9 177685 422322 62492.4 103410 14710.2 -9999 -9999 -9999 -9999 -9999 -9999 -9999
-9999 -9999 -9999 -9999 -9999 -9999 -9999 -9999 -9999 -9999 -9999 -9999 -9999 -9999 -9999 -9999 -9999 -9999 -9999 -9999 -9999 -9999 -9999 -9999 -9999 -9999 -9999 -9999 -9999 56.2329 279784 41244 851.244 262.391 373.564 517.946 1439.95 1922.33 3131.81 6311.76 7332.01 19187.8 59290.7 47399.5 -9999 -9999 -9999 -9999 -9999 -9999 -9999 -9999 -9999 -9999 -9999 -9999 -9999 100395 454621 150334 242063 310113 185134 129255 212406 270995 -9999 -9999 -9999 -9999 -9999 -9999 -9999 -9999 -9999 -9999 -9999 -9999 -9999 -9999 -9999 -9999 -9999 -9999 -9999 161296 1.55e+06 2.55666e+06 853612 136839 85689.3 206012 45753.4 4517.28 1224.23 9143.78 55540.1 196122 116841 76007 2073.66 1142.5 1523.98 -9999 -9999 -9999 -9999 -9999
-9999 -9999 -9999 -9999 -9999 -9999 -9999 -9999 -9999 -9999 -9999 -9999 -9999 -9999 -9999 -9999 -9999 -9999 -9999 -9999 -9999 -9999 -9999 -9999 -9999 -9999 -9999 -9999 -9999 -9999 116063 262999 52563.9 47177.3 7190.39 1286.52 1751.09 2861.58 2921.4 5880.07 6860.88 9423.44 15604.5 3442.57 -9999 -9999 -9999 -9999 -9999 -9999 -9999 -9999 -9999 -9999 -9999 -9999 -9999 19051.9 652394 284700 82660.9 137308 168538 57775 128989 230516 43585.4 22220.1 20045.4 -9999 -9999 -9999 -9999 -9999 -9999 -9999 -9999 -9999 -9999 -9999 -9999 -9999 -9999 -9999 -9999 -9999 -9999 -9999 -9999 -9999 7455.66 14105.6 -9999 4335.3 1819.85 39.237 786.453 15.3719 21904.9 25404.2 4926.66 -9999 272.275 130.158 55.0662 -9999 -9999 -9999
0 -9999 10205.8 -9999 -9999 -9999 -9999 -9999 -9999 -9999 -9999 -9999 -9999 -9999 -9999 -9999 -9999 -9999 -9999 -9999 -9999 -9999 -9999 -9999 -9999 -9999 -9999 -9999 -9999 -9999 -9999 150462 258029 163925 53501.4 17284.1 3209.27 2218.47 5273.53 8788.4 7932.42 12341.8 3832.99 -9999 -9999 -9999 -9999 -9999 -9999 -9999 -9999 -9999 -9999 -9999 -9999 -9999 -9999 27098.3 302548 45949.7 44108.6 34662.6 99158.4 144633 383027 397014 56588.2 9675.23 130382 15914.8 -9999 -9999 -9999 -9999 -9999 -9999 -9999 -9999 -9999 -9999 -9999 -9999 -9999 -9999 -9999 -9999 -9999 -9999 -9999 -9999 29.1467 1383.78 3435.95 7801.54 3823.4 154.802 1483.14 1437.47 -9999 -9999 -9999 -9999 -9999 381.294 10119.3 -9999 -9999 7454.82
0 2516.82 -9999 -9999 -9999 -9999 -9999 -9999 -9999 -9999 -9999 -9999 -9999 -9999 -9999 -9999 -9999 -9999 -9999 -9999 -9999 -9999 -9999 -9999 -9999 -9999 -9999 -9999 -9999 -9999 -9999 -9999 34762.7 164723 216860 28562.5 10029.9 2179.69 6500.73 10148.4 10480.2 25690.1 3203.2 -9999 -9999 -9999 -9999 -9999 -9999 -9999 -9999 -9999 -9999 -9999 -9999 -9999 -9999 2339.22 81470 51070.3 20570 24175.9 32828.7 241398 210218 56974.2 -9999 142665 276424 -9999 -9999 -9999 -9999 -9999 -9999 -9999 -9999 -9999 -9999 -9999 -9999 -9999 -9999 -9999 -9999 -9999 -9999 -9999 -9999 24.6052 2377.43 7338.97 4845.82 2810.34 9350.84 3035.39 2009.4 3286.18 590.315 -9999 -9999 -9999 -9999 -9999 4884.35 -9999 -9999 55383.4
-9999 10596.3 -9999 -9999 -9999 -9999 -9999 -9999 -9999 -9999 -9999 -9999 -9999 -9999 -9999 -9999 -9999 -9999 -9999 -9999 -9999 -9999 -9999 -9999 -9999 -9999 -9999 -9999 -9999 -9999 -9999 -9999 259.416 61519.1 93186.5 31068.3 9396.66 8279.56 7271.04 9594.25 26237.3 42427.6 -9999 -9999 -9999 -9999 -9999 -9999 -9999 -9999 -9999 -9999 -9999 -9999 -9999 -9999 -9999 0 8349.85 21087.4 4308.46 16113.7 90801.6 156679 78960.3 -9999 187.238 149322 156428 -9999 584.046 401.496 -9999 -9999 -9999 -9999 -9999 -9999 -9999 -9999 -9999 -9999 -9999 -9999 -9999 -9999 -9999 -9999 4986.51 9555.01 3679.58 376.693 378.117 1437.63 3496.35 3566.59 1779.88 3533.51 5127.76 566.29 -9999 -9999 -9999 18744.7 3125.12 -9999 -9999 -9999
-9999 -9999 -9999 -9999 -9999 -9999 -9999 -9999 -9999 -9999 -9999 -9999 -9999 -9999 -9999 -9999 -9999 -9999 -9999 -9999 -9999 -9999 -9999 -9999 -9999 -9999 -9999 -9999 -9999 -9999 -9999 -9999 1659.31 5664.96 19830.4 7226.95 116476 53381.3 13271.9 8333.68 1089.62 -9999 -9999 -9999 -9999 -9999 -9999 -9999 -9999 -9999 -9999 -9999 -9999 -9999 -9999 -9999 -9999 -9999 3750.44 9672.17 5126.18 62328.9 228660 386043 57791.4 -9999 -9999 73825.3 25131.7 -9999 -9999 -9999 -9999 -9999 -9999 -9999 -9999 -9999 -9999 -9999 -9999 -9999 -9999 -9999 -9999 -9999 -9999 28.2508 2065.34 2371.48 1732.11 1287.77 1273.91 2192.95 2064.23 202.675 699.302 2363.8 4913.53 4401.76 0 -9999 -9999 -9999 -9999 -9999 -9999 -9999
-9999 -9999 -9999 -9999 -9999 -9999 -9999 -9999 -9999 -9999 -9999 -9999 -9999 -9999 -9999 -9999 -9999 -9999 -9999 -9999 -9999 -9999 -9999 -9999 -9999 -9999 -9999 -9999 -9999 -9999 -9999 -9999 15360.7 10944.8 29516.8 13092.2 27397.1 24585.6 18671.4 5298.65 -9999 -9999 -9999 -9999 -9999 -9999 -9999 -9999 -9999 -9999 -9999 -9999 -9999 -9999 -9999 -9999 -9999 -9999 837.285 5725.27 4797.54 26107.1 161211 163489 -9999 -9999 -9999 -9999 -9999 -9999 -9999 -9999 -9999 -9999 -9999 -9999 -9999 -9999 -9999 -9999 -9999 -9999 -9999 -9999 -9999 -9999 -9999 -9999 5209.59 1485.4 3078.86 481.073 237.271 472.551 248.262 106.346 292.208 1323.87 5203.14 6084.14 182.16 -9999 -9999 -9999 -9999 -9999 -9999 -9999
-9999 -9999 -9999 -9999 -9999 -9999 -9999 -9999 -9999 -9999 -9999 -9999 -9999 -9999 -9999 -9999 -9999 -9999 -9999 -9999 -9999 -9999 -9999 -9999 -9999 -9999 -9999 -9999 -9999 -9999 -9999 -9999 102294 14039.5 18684.7 25151.9 21683.5 10647.5 5110.32 -9999 -9999 -9999 -9999 -9999 -9999 -9999 -9999 -9999 -9999 -9999 -9999 -9999 -9999 -9999 -9999 -9999 -9999 -9999 -9999 26512.7 23934.4 50106.4 101004 14185.2 -9999 -9999 -9999 -9999 -9999 -9999 -9999 -9999 -9999 -9999 -9999 -9999 -9999 -9999 -9999 -9999 -9999 -9999 -9999 -9999 -9999 -9999 -9999 -9999 6745.42 10853.7 3934.82 1006.17 400.078 370.174 1994.54 2949.58 276.18 1326.65 3955.58 2867.06 -9999 -9999 -9999 -9999 -9999 -9999 -9999 -9999
-9999 -9999 -9999 -9999 -9999 -9999 -9999 -9999 -9999 -9999 -9999 -9999 -9999 -9999 -9999 -9999 -9999 -9999 -9999 -9999 -9999 -9999 -9999 -9999 -9999 -9999 -9999 -9999 -9999 -9999 -9999 -9999 295702 10295.9 12242.8 23167.6 48484.1 16766.1 53.5197 -9999 -9999 -9999 -9999 -9999 -9999 -9999 -9999 -9999 -9999 -9999 -9999 -9999 -9999 -9999 -9999 -9999 -9999 -9999 -9999 13666 23348 19858.2 1500.39 -9999 -9999 -9999 -9999 -9999 -9999 -9999 -9999 -9999 -9999 -9999 -9999 -9999 -9999 -9999 -9999 -9999 -9999 -9999 -9999 -9999 -9999 -9999 -9999 -9999 4793.57 4794.21 2169.79 9.3506 -9999 -9999 1035.26 7967.33 6862.83 6091.37 4882.88 1072.36 -9999 -9999 -9999 -9999 -9999 845.732 19885.9 -9999
-9999 -9999 -9999 -9999 -9999 -9999 -9999 -9999 -9999 -9999 -9999 -9999 -9999 -9999 -9999 -9999 -9999 -9999 -9999 -9999 -9999 -9999 -9999 -9999 -9999 -9999 -9999 -9999 -9999 -9999 -9999 10151.4 126931 995.488 1956.23 15622.3 6583.45 -9999 -9999 -9999 -9999 -9999 -9999 -9999 -9999 -9999 -9999 -9999 -9999 -9999 -9999 -9999 -9999 -9999 -9999 -9999 -9999 -9999 -9999 -9999 -9999 -9999 -9999 -9999 -9999 -9999 -9999 -9999 -9999 -9999 -9999 -9999 -9999 -9999 -9999 -9999 -9999 -9999 -9999 -9999 -9999 -9999 -9999 -9999 -9999 -9999 -9999 -9999 -9999 -9999 -9999 -9999 -9999 -9999 -9999 124.108 4316.89 5804.85 2812.17 -9999 -9999 -9999 -9999 -9999 -9999 -9999 64896.1 21638.5
-9999 -9999 -9999 -9999 -9999 -9999 -9999 -9999 -9999 -9999 -9999 -9999 -9999 -9999 -9999 -9999 -9999 -9999 -9999 -9999 -9999 -9999 -9999 -9999 -9999 -9999 -9999 -9999 -9999 -9999 -9999 12904.2 16672.7 34.7864 159.884 1129.02 -9999 -9999 -9999 -9999 -9999 -9999 -9999 -9999 -9999 -9999 -9999 -9999 -9999 -9999 -9999 -9999 -9999 -9999 -9999 -9999 -9999 -9999 -9999 -9999 -9999 -9999 -9999 -9999 -9999 -9999 -9999 -9999 -9999 -9999 -9999 -9999 -9999 -9999 -9999 -9999 -9999 -9999 -9999 -9999 -9999 -9999 -9999 -9999 -9999 -9999 -9999 -9999 -9999 -9999 -9999 -9999 -9999 -9999 -9999 -9999 -9999 4315.34 5327.16 -9999 -9999 -9999 -9999 -9999 -9999 12967.3 43301.2 227.818
0 91.9695 -9999 -9999 -9999 -9999 -9999 -9999 -9999 -9999 -9999 -9999 -9999 -9999 -9999 -9999 -9999 -9999 -9999 -9999 -9999 -9999 -9999 -9999 -9999 -9999 -9999 -9999 -9999 -9999 -9999 588.922 2433.33 63.9845 18.1381 -9999 -9999 -9999 -9999 -9999 -9999 -9999 -9999 -9999 -9999 -9999 -9999 -9999 -9999 -9999 -9999 -9999 -9999 -9999 -9999 -9999 -9999 -9999 -9999 -9999 -9999 -9999 -9999 -9999 -9999 -9999 -9999 -9999 -9999 -9999 -9999 -9999 -9999 -9999 -9999 -9999 -9999 -9999 -9999 -9999 -9999 -9999 -9999 -9999 -9999 -9999 -9999 -9999 -9999 -9999 -9999 -9999 -9999 -9999 -9999 -9999 -9999 111.012 128.889 -9999 -9999 -9999 -9999 19.597 16836.7 19185.5 -9999 -9999
-9999 -9999 -9999 -9999 -9999 -9999 -9999 -9999 -9999 -9999 -9999 -9999 -9999 -9999 -9999 -9999 -9999 -9999 -9999 -9999 -9999 -9999 -9999 -9999 -9999 -9999 -9999 -9999 -9999 -9999 -9999 194.844 162.06 46.4149 6.07586 -9999 -9999 -9999 -9999 -9999 -9999 -9999 -9999 -9999 -9999 -9999 -9999 -9999 -9999 -9999 -9999 -9999 -9999 -9999 -9999 -9999 -9999 -9999 -9999 -9999 -9999 -9999 -9999 -9999 -9999 -9999 -9999 -9999 -9999 -9999 -9999 -9999 -9999 -9999 -9999 -9999 -9999 -9999 -9999 -9999 -9999 -9999 -9999 -9999 -9999 -9999 -9999 -9999 -9999 -9999 -9999 -9999 -9999 -9999 -9999 -9999 -9999 -9999 -9999 -9999 -9999 -9999 -9999 -9999 103.563 -9999 -9999 -9999
-9999 -9999 -9999 -9999 -9999 -9999 -9999 -9999 -9999 -9999 -9999 -9999 -9999 -9999 -9999 -9999 -9999 -9999 -9999 -9999 -9999 -9999 -9999 -9999 -9999 -9999 -9999 -9999 -9999 -9999 -9999 25.476 161.507 38.835 -9999 38.7469 636.79 -9999 -9999 -9999 -9999 -9999 -9999 -9999 -9999 -9999 -9999 -9999 -9999 -9999 -9999 -9999 -9999 -9999 -9999 -9999 -9999 -9999 -9999 -9999 -9999 -9999 -9999 -9999 -9999 -9999 -9999 -9999 -9999 -9999 -9999 -9999 -9999 -9999 -9999 -9999 -9999 -9999 -9999 -9999 -9999 -9999 -9999 -9999 -9999 -9999 -9999 -9999 -9999 -9999 -9999 -9999 -9999 -9999 -9999 -9999 -9999 -9999 -9999 -9999 -9999 -9999 -9999 -9999 -9999 -9999 -9999 -9999
-9999 -9999 -9999 -9999 -9999 -9999 -9999 -9999 -9999 -9999 -9999 -9999 -9999 -9999 -9999 -9999 -9999 -9999 -9999 -9999 -9999 -9999 -9999 -9999 -9999 -9999 -9999 -9999 -9999 -9999 -9999 0 5.85664 147.778 27.7627 -9999 -9999 -9999 -9999 -9999 -9999 -9999 -9999 -9999 -9999 -9999 -9999 -9999 -9999 -9999 -9999 -9999 -9999 -9999 -9999 -9999 -9999 -9999 -9999 -9999 -9999 -9999 -9999 -9999 -9999 -9999 -9999 -9999 -9999 -9999 -9999 -9999 -9999 -9999 -9999 -9999 -9999 -9999 -9999 -9999 -9999 -9999 -9999 -9999 -9999 -9999 -9999 -9999 -9999 -9999 -9999 -9999 -9999 -9999 -9999 -9999 -9999 -9999 -9999 -9999 -9999 -9999 -9999 -9999 -9999 -9999 -9999 -9999
-9999 -9999 -9999 -9999 -9999 -9999 -9999 -9999 -9999 -9999 -9999 -9999 -9999 -9999 -9999 -9999 -9999 -9999 -9999 -9999 -9999 -9999 -9999 -9999 -9999 -9999 -9999 -9999 -9999 -9999 -9999 -9999 -9999 -9999 -9999 -9999 -9999 -9999 -9999 -9999 -9999 -9999 -9999 -9999 -9999 -9999 -9999 -9999 -9999 -9999 -9999 -9999 -9999 -9999 -9999 -9999 -9999 -9999 -9999 -9999 -9999 -9999 -9999 -9999 -9999 -9999 -9999 -9999 -9999 -9999 -9999 -9999 -9999 -9999 -9999 -9999 -9999 -9999 -9999 -9999 -9999 -9999 -9999 -9999 -9999 -9999 -9999 -9999 -9999 -9999 -9999 -9999 -9999 -9999 -9999 -9999 -9999 -9999 -9999 -9999 -9999 -9999 -9999 -9999 -9999 -9999 -9999 -9999
-9999 -9999 -9999 -9999 -9999 -9999 -9999 -9999 -9999 -9999 -9999 -9999 -9999 -9999 -9999 -9999 -9999 -9999 -9999 -9999 -9999 -9999 -9999 -9999 -9999 -9999 -9999 -9999 -9999 -9999 -9999 -9999 -9999 -9999 -9999 -9999 -9999 -9999 -9999 -9999 -9999 -9999 -9999 -9999 -9999 -9999 -9999 -9999 -9999 -9999 -9999 -9999 -9999 -9999 -9999 -9999 -9999 -9999 -9999 -9999 -9999 -9999 -9999 -9999 -9999 -9999 -9999 -9999 -9999 -9999 -9999 -9999 -9999 -9999 -9999 -9999 -9999 -9999 -9999 -9999 -9999 -9999 -9999 -9999 -9999 -9999 -9999 -9999 -9999 -9999 -9999 -9999 -9999 -9999 -9999 -9999 -9999 -9999 -9999 -9999 -9999 -9999 -9999 -9999 -9999 -9999 -9999 -9999
-9999 -9999 -9999 -9999 -9999 -9999 -9999 -9999 -9999 -9999 -9999 -9999 -9999 -9999 -9999 -9999 -9999 -9999 -9999 -9999 -9999 -9999 -9999 -9999 -9999 -9999 -9999 -9999 -9999 -9999 -9999 -9999 -9999 -9999 -9999 -9999 -9999 -9999 -9999 -9999 -9999 -9999 -9999 -9999 -9999 -9999 -9999 -9999 -9999 -9999 -9999 -9999 -9999 -9999 -9999 -9999 -9999 -9999 -9999 -9999 -9999 -9999 -9999 -9999 -9999 -9999 -9999 -9999 -9999 -9999 -9999 -9999 -9999 -9999 -9999 -9999 -9999 -9999 -9999 -9999 -9999 -9999 -9999 -9999 -9999 -9999 -9999 -9999 -9999 -9999 -9999 -9999 -9999 -9999 -9999 -9999 -9999 -9999 -9999 -9999 -9999 -9999 -9999 -9999 -9999 -9999 -9999 -9999
-9999 -9999 -9999 -9999 -9999 -9999 -9999 -9999 -9999 -9999 -9999 -9999 -9999 -9999 -9999 -9999 -9999 -9999 -9999 -9999 -9999 -9999 -9999 -9999 -9999 -9999 -9999 -9999 -9999 -9999 -9999 -9999 -9999 -9999 -9999 -9999 -9999 -9999 -9999 -9999 -9999 -9999 -9999 -9999 -9999 -9999 -9999 -9999 -9999 -9999 -9999 -9999 -9999 -9999 -9999 -9999 -9999 -9999 -9999 -9999 -9999 -9999 -9999 -9999 -9999 -9999 -9999 -9999 -9999 -9999 -9999 -9999 -9999 -9999 -9999 -9999 -9999 -9999 -9999 -9999 -9999 -9999 -9999 -9999 -9999 -9999 -9999 -9999 -9999 -9999 -9999 -9999 -9999 -9999 -9999 -9999 -9999 -9999 -9999 -9999 -9999 -9999 -9999 -9999 -9999 -9999 -9999 -9999
-9999 -9999 -9999 -9999 -9999 -9999 -9999 -9999 -9999 -9999 -9999 -9999 -9999 -9999 -9999 -9999 -9999 -9999 -9999 -9999 -9999 -9999 -9999 -9999 -9999 -9999 -9999 -9999 -9999 -9999 -9999 -9999 -9999 -9999 -9999 -9999 -9999 -9999 -9999 -9999 -9999 -9999 -9999 -9999 -9999 -9999 -9999 -9999 -9999 -9999 -9999 -9999 -9999 -9999 -9999 -9999 -9999 -9999 -9999 -9999 -9999 -9999 -9999 -9999 -9999 -9999 -9999 -9999 -9999 -9999 -9999 -9999 -9999 -9999 -9999 -9999 -9999 -9999 -9999 -9999 -9999 -9999 -9999 -9999 -9999 -9999 -9999 -9999 -9999 -9999 -9999 -9999 -9999 -9999 -9999 -9999 -9999 -9999 -9999 -9999 -9999 -9999 -9999 -9999 -9999 -9999 -9999 -9999
-9999 -9999 -9999 -9999 -9999 -9999 -9999 -9999 -9999 -9999 -9999 -9999 -9999 -9999 -9999 -9999 -9999 -9999 -9999 -9999 -9999 -9999 -9999 -9999 -9999 -9999 -9999 -9999 -9999 -9999 -9999 -9999 -9999 -9999 -9999 -9999 -9999 -9999 -9999 -9999 -9999 -9999 -9999 -9999 -9999 -9999 -9999 -9999 -9999 -9999 -9999 -9999 -9999 -9999 -9999 -9999 -9999 -9999 -9999 -9999 -9999 -9999 -9999 -9999 -9999 -9999 -9999 -9999 -9999 -9999 -9999 -9999 -9999 -9999 -9999 -9999 -9999 -9999 -9999 -9999 -9999 -9999 -9999 -9999 -9999 -9999 -9999 -9999 -9999 -9999 -9999 -9999 -9999 -9999 -9999 -9999 -9999 -9999 -9999 -9999 -9999 -9999 -9999 -9999 -9999 -9999 -9999 -9999
-9999 -9999 -9999 -9999 -9999 -9999 -9999 -9999 -9999 -9999 -9999 -9999 -9999 -9999 -9999 -9999 -9999 -9999 -9999 -9999 -9999 -9999 -9999 -9999 -9999 -9999 -9999 -9999 -9999 -9999 -9999 -9999 -9999 -9999 -9999 -9999 -9999 -9999 -9999 -9999 -9999 -9999 -9999 -9999 -9999 -9999 -9999 -9999 -9999 -9999 -9999 -9999 -9999 -9999 -9999 -9999 -9999 -9999 -9999 -9999 -9999 -9999 -9999 -9999 -9999 -9999 -9999 -9999 -9999 -9999 -9999 -9999 -9999 -9999 -9999 -9999 -9999 -9999 -9999 -9999 -9999 -9999 -9999 -9999 -9999 -9999 -9999 -9999 -9999 -9999 -9999 -9999 -9999 -9999 -9999 -9999 -9999 -9999 -9999 -9999 -9999 -9999 -9999 -9999 -9999 -9999 -9999 -9999
-9999 -9999 -9999 -9999 -9999 -9999 -9999 -9999 -9999 -9999 -9999 -9999 -9999 -9999 -9999 -9999 -9999 -9999 -9999 -9999 -9999 -9999 -9999 -9999 -9999 -9999 -9999 -9999 -9999 -9999 -9999 -9999 -9999 -9999 -9999 -9999 -9999 -9999 -9999 -9999 -9999 -9999 -9999 -9999 -9999 -9999 -9999 -9999 -9999 -9999 -9999 -9999 -9999 -9999 -9999 -9999 -9999 -9999 -9999 -9999 -9999 -9999 -9999 -9999 -9999 -9999 -9999 -9999 -9999 -9999 -9999 -9999 -9999 -9999 -9999 -9999 -9999 -9999 -9999 -9999 -9999 -9999 -9999 -9999 -9999 -9999 -9999 -9999 -9999 -9999 -9999 -9999 -9999 -9999 -9999 -9999 -9999 -9999 -9999 -9999 -9999 -9999 -9999 -9999 -9999 -9999 -9999 -9999
-9999 -9999 -9999 -9999 -9999 -9999 -9999 -9999 -9999 -9999 -9999 -9999 -9999 -9999 -9999 -9999 -9999 -9999 -9999 -9999 -9999 -9999 -9999 -9999 -9999 -9999 -9999 -9999 -9999 -9999 -9999 -9999 -9999 -9999 -9999 -9999 -9999 -9999 -9999 -9999 -9999 -9999 -9999 -9999 -9999 -9999 -9999 -9999 -9999 -9999 -9999 -9999 -9999 -9999 -9999 -9999 -9999 -9999 -9999 -9999 -9999 -9999 -9999 -9999 -9999 -9999 -9999 -9999 -9999 -9999 -9999 -9999 -9999 -9999 -9999 -9999 -9999 -9999 -9999 -9999 -9999 -9999 -9999 -9999 -9999 -9999 -9999 -9999 -9999 -9999 -9999 -9999 -9999 -9999 -9999 -9999 -9999 -9999 -9999 -9999 -9999 -9999 -9999 -9999 -9999 -9999 -9999 -9999
-9999 -9999 -9999 -9999 -9999 -9999 -9999 -9999 -9999 -9999 -9999 -9999 -9999 -9999 -9999 -9999 -9999 -9999 -9999 -9999 -9999 -9999 -9999 -9999 -9999 -9999 -9999 -9999 -9999 -9999 -9999 -9999 -9999 -9999 -9999 -9999 -9999 -9999 -9999 -9999 -9999 -9999 -9999 -9999 -9999 -9999 -9999 -9999 -9999 -9999 -9999 -9999 -9999 -9999 -9999 -9999 -9999 -9999 -9999 -9999 -9999 -9999 -9999 -9999 -9999 -9999 -9999 -9999 -9999 -9999 -9999 -9999 -9999 -9999 -9999 -9999 -9999 -9999 -9999 -9999 -9999 -9999 -9999 -9999 -9999 -9999 -9999 -9999 -9999 -9999 -9999 -9999 -9999 -9999 -9999 -9999 -9999 -9999 -9999 -9999 -9999 -9999 -9999 -9999 -9999 -9999 -9999 -9999
