ncols         108
nrows         54
xllcorner     -180
yllcorner     -90
cellsize      3.333332
NODATA_value  -9999
-9999 -9999 -9999 -9999 -9999 -9999 -9999 -9999 -9999 -9999 -9999 -9999 -9999 -9999 -9999 -9999 -9999 -9999 -9999 -9999 -9999 -9999 -9999 -9999 -9999 -9999 -9999 -9999 -9999 -9999 -9999 -9999 -9999 -9999 -9999 -9999 -9999 -9999 -9999 -9999 -9999 -9999 -9999 -9999 -9999 -9999 -9999 -9999 -9999 -9999 -9999 -9999 -9999 -9999 -9999 -9999 -9999 -9999 -9999 -9999 -9999 -9999 -9999 -9999 -9999 -9999 -9999 -9999 -9999 -9999 -9999 -9999 -9999 -9999 -9999 -9999 -9999 -9999 -9999 -9999 -9999 -9999 -9999 -9999 -9999 -9999 -9999 -9999 -9999 -9999 -9999 -9999 -9999 -9999 -9999 -9999 -9999 -9999 -9999 -9999 -9999 -9999 -9999 -9999 -9999 -9999 -9999 -9999
-9999 -9999 -9999 -9999 -9999 -9999 -9999 -9999 -9999 -9999 -9999 -9999 -9999 -9999 -9999 -9999 -9999 -9999 -9999 -9999 -9999 -9999 -9999 -9999 -9999 -9999 -9999 -9999 -9999 -9999 -9999 -9999 -9999 -9999 -9999 -9999 -9999 -9999 -9999 -9999 -9999 -9999 0 0 0 0 -9999 -9999 -9999 -9999 -9999 -9999 -9999 -9999 -9999 -9999 -9999 -9999 -9999 -9999 -9999 -9999 -9999 -9999 -9999 -9999 -9999 -9999 -9999 -9999 -9999 -9999 -9999 -9999 -9999 -9999 -9999 -9999 -9999 -9999 -9999 -9999 -9999 -9999 -9999 -9999 -9999 -9999 -9999 -9999 -9999 -9999 -9999 -9999 -9999 -9999 -9999 -9999 -9999 -9999 -9999 -9999 -9999 -9999 -9999 -9999 -9999 -9999
-9999 -9999 -9999 -9999 -9999 -9999 -9999 -9999 -9999 -9999 -9999 -9999 -9999 -9999 -9999 -9999 -9999 -9999 -9999 -9999 -9999 -9999 -9999 -9999 0 0 0 0 0 0 0 0 0 0 0 0 0 0 0 0 0 0 0 0 0 0 0 0 0 0 0 -9999 -9999 -9999 -9999 -9999 -9999 -9999 -9999 -9999 -9999 -9999 -9999 -9999 -9999 -9999 -9999 -9999 -9999 -9999 -9999 -9999 -9999 -9999 -9999 -9999 -9999 -9999 -9999 -9999 -9999 -9999 -9999 -9999 -9999 -9999 -9999 -9999 -9999 -9999 -9999 -9999 -9999 -9999 -9999 -9999 -9999 -9999 -9999 -9999 -9999 -9999 -9999 -9999 -9999 -9999 -9999 -9999
-9999 -9999 -9999 -9999 -9999 -9999 -9999 -9999 -9999 -9999 -9999 -9999 -9999 -9999 -9999 -9999 -9999 0 0 0 0 0 0 0 0 0 0 0 0 0 0 0 0 0 0 0 0 0 0 0 0 0 0 0 0 0 0 0 0 -9999 -9999 -9999 -9999 -9999 -9999 -9999 -9999 0 0 0 0 0 -9999 -9999 -9999 -9999 -9999 -9999 -9999 -9999 -9999 -9999 -9999 -9999 0 -9999 -9999 -9999 -9999 -9999 -9999 -9999 0 0 0.169251 0 0.0923951 -9999 -9999 -9999 -9999 -9999 -9999 -9999 -9999 -9999 -9999 -9999 -9999 -9999 -9999 -9999 -9999 -9999 -9999 -9999 -9999 -9999
-9999 -9999 -9999 -9999 -9999 -9999 -9999 -9999 -9999 -9999 -9999 -9999 -9999 -9999 -9999 -9999 0 0 0 0 0 0 0 0 0 0.505521 0 0 0 1.34537 0 -9999 -9999 0 0 0 0 0 0 0 0 0 0 0 0 0 0 0 0 -9999 -9999 -9999 -9999 -9999 -9999 -9999 -9999 -9999 -9999 -9999 -9999 -9999 -9999 -9999 -9999 -9999 -9999 -9999 -9999 -9999 0.00533745 0.0352645 0.00650046 0.0120835 0 -9999 -9999 -9999 0 1.15557 0.00192634 3.70625 0 0.341712 0.240596 0.501823 3.50321 2.79194 0.10796 0 -9999 0 0 -9999 0 0.54693 0.116749 0 0.512824 0 -9999 -9999 -9999 -9999 -9999 -9999 -9999 -9999
0.00284606 -9999 -9999 -9999 -9999 0.297314 35.052 15.0908 53.661 104.885 2.45391 0 -9999 -9999 0 0 0.275934 0 0.467989 0 0 0 0 0 0 0 0 0 1.05457 0 1.97276 0 0 3.08823 -9999 -9999 -9999 0 0 0 0 0 0 0 0 0 0 0 -9999 -9999 -9999 -9999 -9999 -9999 -9999 -9999 -9999 -9999 -9999 21.8411 44.4673 114.622 185.459 24.023 -9999 -9999 -9999 -9999 -9999 0.0552151 0.14966 0.00569582 -9999 -9999 0.00546373 0.00605749 0.00483599 0.0983239 4.66065 2.76295 6.9157 4.21774 42.5975 13.9863 3.25721 3.91233 1.63019 15.0763 38.9282 10.4217 13.855 12.4131 14.3878 7.89033 35.8353 14.7332 17.261 10.5778 22.7426 0.340742 5.31604 16.1568 0 -9999 -9999 0 -9999 0.000233064
0.0343035 0.014154 0.00563692 -9999 50.9231 141.788 179.22 85.039 110.918 71.7649 43.8264 2.50037 0.118032 3.43621 0.25946 0 0.979165 0 0 14.1152 0 0.509283 4.49673 0 0 0.924576 0 0.374083 0.360004 0.459706 0 0 0 0 1.39613 0 -9999 0 0 0 0 0 0 0 0 0 0 -9999 -9999 -9999 -9999 -9999 -9999 -9999 -9999 -9999 -9999 26.1713 2917.51 1911.57 1558.31 579.517 338.203 90.4728 7.33954 3.96512 0.584587 0.168149 0.318658 0.76664 0.369509 0.205294 0.57947 0.782804 0.0743183 0.0451235 0.021131 0.0279308 6.21966 32.9012 10.6325 5.55433 7.97025 3.51908 9.67948 11.9577 12.4197 17.2562 32.2331 16.2436 54.6396 52.7922 3.65282 62.7185 61.0306 20.7412 29.2269 70.9921 59.1906 45.5206 78.4844 19.9782 21.3202 0.0451903 0.0231517 0.0783102 0.0221808 0.0192313
0.0167594 0.0274016 6.25611 73.7645 98.3013 229.822 221.259 247.547 260.764 783.83 571.291 153.616 3.66527 0.648753 0 1.46867 3.3106 0.273659 0.000230389 0.470473 0 0 0 0 0 3.71181 0.292165 0.324624 3.79259 1.75506 0 0 0 3.23804 1.4588 0 -9999 0 0 0 0 0 0 0 -9999 -9999 207.753 5484.27 1510.95 1304.66 -9999 -9999 -9999 -9999 -9999 -9999 1186.23 6430.56 3985.55 2359.9 2284.99 2017.37 1109.51 53.0604 6.70691 5.03245 10.6694 9.41976 4.0142 2.96392 3.72426 1.99598 0.965703 0.599094 0.459147 0.26994 0.218749 0.14651 0.0628629 0.925492 1.77339 0.00419178 0.00579095 0.0183034 0.0241217 13.0815 79.4481 164.187 93.2005 235.719 258.118 170.566 73.7062 88.7195 39.6371 7.08892 35.631 22.4186 15.9902 78.9892 1.02416 2.80731 0.400002 0.0336155 0.0815878 0.0338154 0.0290372 0.0479785
-9999 -9999 0 18.8435 883.081 765.438 244.541 151.658 920.461 780.602 161.601 249.033 5.35229 14.4085 2.77257 2.08603 5.77902 6.65978 4.54046 18.3515 9.89321 0.000253454 0 0.318735 0 2.65703 1.94554 -9999 0 0 2.88983 0.892576 5.25338 2.9989 0 -9999 -9999 -9999 0 0 0 0 -9999 -9999 -9999 -9999 -9999 -9999 -9999 -9999 -9999 108.024 12.7935 788.122 -9999 11740.7 17856.3 24513.6 21719.8 11970.5 3630.89 8856.76 5646.21 5811.65 3202.69 2109.39 1782.96 2544.24 1685.27 256.057 2521.92 2705.58 1785.43 3.61538 0.952937 1.30378 0.881176 188.394 87.1551 66.453 5.08913 2.1669 0.510426 0.122337 0.128002 253.877 483.695 202.314 253.658 224.185 171.557 181.823 347.959 296.143 241.535 103.258 223.294 99.5249 2.16376 2.01292 1.16025 0.484684 0.54363 0.173712 0.161326 0.0710632 0.0342042 0.0073424
-9999 -9999 -9999 4.30943 41.253 201.595 225.129 123.854 348.535 0.758594 -9999 0 38.101 367.72 84.7091 10.8349 9.12799 59.5095 72.0991 57.5007 177.718 3.41 9.3454 4.30516 1.38751 1.58437 0 0 -9999 0 2.03379 0 0 6.47194 1.75137 0 -9999 -9999 -9999 -9999 -9999 -9999 -9999 -9999 -9999 -9999 -9999 -9999 -9999 -9999 -9999 920.666 25403.7 23630.7 -9999 6953.35 32270.2 56437.5 61756.7 26656.4 6384.3 35186.1 34896.7 41621.2 19096.7 25748.4 24914.6 18620.6 16163.8 16756.6 14578.9 9904.99 12675.3 9078.31 5478.23 3749.14 1868.55 1289.77 1438.8 2269.1 806.127 17.6511 13.8096 1064.88 2038.18 1091.23 1176.94 987.69 1059.85 555.576 127.248 110.898 75.2201 211.003 145.011 185.772 314.459 117.271 5.15294 1.29639 0.0683435 0.558415 1.16822 0.0163626 -9999 0 -9999 -9999
-9999 -9999 -9999 4.89504 25.2429 96.8731 14.6144 -9999 -9999 -9999 -9999 -9999 -9999 44.7956 489.642 278.42 237.525 279.111 164.617 361.905 535.293 172.584 106.632 46.3305 19.3143 22.2074 24.3648 49.1406 14.0641 1.42515 120.069 31.6181 62.145 4.59088 35.5959 7.70522 2.8994 0.163991 -9999 -9999 -9999 -9999 -9999 -9999 -9999 -9999 -9999 -9999 -9999 -9999 815.182 99714.5 83167 148480 1353.27 5392.47 183874 263415 58887.1 41823.9 43046.5 53722.1 37225.8 34802.1 54870.1 105323 42041.1 43394.4 32178.3 32429.4 28623 11948.8 21046.3 21748.3 15204.1 10884.3 12539.4 7784.13 10568.6 16448.5 7280.3 1541.2 17.7628 2241.2 3374.55 1215.33 658.881 624.347 660.675 580.937 1983.21 1982.67 462.278 128.683 113.229 138.105 42.4314 -9999 -9999 -9999 0.913086 3.14589 2.17205 0.0167571 -9999 -9999 -9999 -9999
8.44422 17.7374 -9999 3.25457 -9999 -9999 -9999 -9999 -9999 -9999 -9999 -9999 -9999 -9999 6.42131 69.0191 227.464 1004.27 523.235 743.461 878.153 847.201 943.403 914.059 695.052 248.747 408.597 231.784 18.4215 33.3476 66.1036 60.9838 0 116.569 103.919 123.582 84.8975 65.5943 -9999 -9999 -9999 -9999 -9999 -9999 -9999 -9999 -9999 -9999 -9999 -9999 1936.2 108602 107116 325289 320224 646398 884260 708202 470937 195425 131059 48363.4 39287 60386.9 59955.6 53247.3 44831.5 26568.1 21875.6 16837.1 13815.3 12370.6 26178 27748.7 19434 25574.1 16771.7 15627.2 14008.6 8931.79 4914.81 3818.47 2171.79 8028.77 6304.9 7137 3654.4 1877.79 4297.99 6444.88 33043.5 49750 14150 614.246 571.702 1120.7 505.296 0.0426404 -9999 -9999 0.8311 1.20849 0 -9999 -9999 -9999 -9999 -9999
-9999 -9999 -9999 -9999 -9999 -9999 -9999 -9999 -9999 -9999 -9999 -9999 -9999 -9999 -9999 7.97014 286.398 466.775 810.687 1523.13 1500.15 874.034 1182.68 723.823 1232.57 737.015 670.824 559.314 808.805 900.963 2128.38 806.351 2428.04 4288.65 997.843 27.0833 305.225 600.072 114.247 -9999 -9999 -9999 -9999 -9999 -9999 -9999 -9999 -9999 -9999 -9999 -9999 -9999 104816 648724 888683 784161 885770 485271 589418 584759 280016 162196 137431 55750.1 67705.2 93247.7 29312.4 10835.4 7783.28 10746 9350.97 5851.83 6687.36 10253.9 13236.5 42611.8 23117.9 14614.7 14581.9 21353.4 38211.3 29387 23361.8 19292.5 28182.4 57228.5 11932.5 10191.3 18236.1 75028.7 77502.9 249435 161919 82113.6 24508.5 853.593 82.6995 0.309416 -9999 0 0.00470488 -9999 -9999 -9999 -9999 -9999 -9999 -9999
-9999 -9999 -9999 -9999 -9999 -9999 -9999 -9999 -9999 -9999 -9999 -9999 -9999 -9999 -9999 -9999 337.643 1429.55 1320.71 1492.39 1647.01 1429.34 1046.84 1183.5 1649 1633.4 4335.52 3584.73 729.638 2769.68 5058.04 8383.06 35894.8 18276.1 1955.16 1022.97 12.8998 0.676151 0 -9999 -9999 -9999 -9999 -9999 -9999 -9999 -9999 -9999 -9999 -9999 -9999 60661.2 83084 294427 783372 777662 1.77166e+06 1.7203e+06 491767 481125 500976 394189 187176 6879.08 15529.5 21806 31610.4 23503.2 6943.14 1162.61 3039.15 6108.8 4087.25 7926.65 23016.9 13860.3 17441.8 41822.3 54148.7 42002.5 26522.5 21367.1 15498.7 10731.9 18178.2 11088.8 9839.54 29201.6 101354 93771.4 353884 974081 317908 87825.8 8931.97 212.073 2452.71 1493.5 0.163895 0 -9999 -9999 -9999 -9999 -9999 -9999 -9999 -9999
-9999 -9999 -9999 -9999 -9999 -9999 -9999 -9999 -9999 -9999 -9999 -9999 -9999 -9999 -9999 -9999 1335.49 3845.77 512.9 1262.79 2262.01 1205.77 2997.36 3120.9 4943.53 8148.06 7288.02 4577.64 3525.71 8676.34 11739.7 21123.2 83288.9 105.468 -9999 -9999 -9999 -9999 -9999 -9999 -9999 -9999 -9999 -9999 -9999 -9999 -9999 -9999 -9999 -9999 -9999 734462 790695 720356 627438 19333.1 116243 800259 1.26239e+06 468127 716130 517730 786395 412217 483479 398378 325079 160887 50414.2 1720.3 4310.7 29960.2 37955.1 26816.6 195467 206089 62979.1 35351.1 61815.7 45863.8 23953.6 11799.3 53798.1 32503.3 6089.9 25505.1 87596.8 171393 856546 753132 961083 827196 146365 19682.3 186.239 401.7 10497.9 1634.67 -9999 -9999 -9999 -9999 -9999 -9999 -9999 -9999 -9999 -9999
-9999 -9999 -9999 -9999 -9999 -9999 -9999 -9999 -9999 -9999 -9999 -9999 -9999 -9999 -9999 -9999 429.821 9764.67 2087.14 607.441 1380.13 3548.96 4549.13 7259.42 15431.6 12030.6 3417.86 6389.82 16974.7 30847.5 58121.2 31108.8 -9999 -9999 -9999 -9999 -9999 -9999 -9999 -9999 -9999 -9999 -9999 -9999 -9999 -9999 -9999 -9999 -9999 -9999 -9999 257239 836809 774306 127090 94173.4 298596 411619 1.10334e+06 77178 713279 595758 1.00958e+06 458907 692568 755740 571799 340417 484468 57768.2 155828 82883.2 19199.5 112909 234676 64416 37704.8 54209.6 17843.6 8681.86 6779.43 12038.1 27210.9 84007.9 168963 243124 397465 1.04317e+06 1.98785e+06 1.92814e+06 766234 88687.9 49696.7 -9999 0 27309.7 22692.6 -9999 -9999 -9999 -9999 -9999 -9999 -9999 -9999 -9999 -9999 -9999
-9999 -9999 -9999 -9999 -9999 -9999 -9999 -9999 -9999 -9999 -9999 -9999 -9999 -9999 -9999 -9999 -9999 2634.33 6349.52 1782.63 1163.85 5402.08 6624.92 8889.72 3571.52 4994.63 7386.03 7097.09 15729.7 13824.1 7812.61 403.447 -9999 -9999 -9999 -9999 -9999 -9999 -9999 -9999 -9999 -9999 -9999 -9999 -9999 -9999 -9999 -9999 -9999 -9999 -9999 200853 453254 149052 515925 465352 543636 246038 1233.22 -9999 51619 104922 35676.9 133191 1.16161e+06 663043 257717 327872 526429 963847 78614.5 145568 183313 218514 783770 525209 341718 140141 11405.9 9125.7 8394.69 13275.5 20987.3 45267.2 140177 510585 811409 1.88271e+06 3.4229e+06 3.81525e+06 374258 5868.14 57092.6 32516 77594.4 71541.4 12772.9 -9999 -9999 -9999 -9999 -9999 -9999 -9999 -9999 -9999 -9999 -9999
-9999 -9999 -9999 -9999 -9999 -9999 -9999 -9999 -9999 -9999 -9999 -9999 -9999 -9999 -9999 -9999 -9999 -9999 1709.72 18087.6 22047.8 25602 13601.5 7732.4 14164.4 15582.2 17063 4341.24 11541.3 8449.72 248.761 -9999 -9999 -9999 -9999 -9999 -9999 -9999 -9999 -9999 -9999 -9999 -9999 -9999 -9999 -9999 -9999 -9999 21397.1 -9999 -9999 249557 136190 72546.2 49759.2 67260 22335.9 141943 128882 10729.8 90844.8 13535.2 176566 2.1962e+06 768840 144202 32016.8 402703 431541 287514 70626.3 53505.4 76461.5 176920 295835 867185 2.57951e+06 1.04444e+06 26099.9 10661.2 11790 15352.8 20209.4 229388 461435 1.62555e+06 1.38857e+06 1.63766e+06 2.12148e+06 3.01917e+06 1.99767e+06 428.624 2961.99 30919.5 0 140.831 -9999 -9999 -9999 -9999 -9999 -9999 -9999 -9999 -9999 -9999 -9999 -9999
-9999 -9999 -9999 -9999 -9999 -9999 -9999 -9999 -9999 -9999 -9999 -9999 -9999 -9999 -9999 -9999 -9999 -9999 -9999 9795.46 29549.7 96830.7 63395.9 130836 20953.3 3340.22 1695.81 140.224 171.558 5643.22 63.3304 -9999 -9999 -9999 -9999 -9999 -9999 -9999 -9999 -9999 -9999 -9999 -9999 -9999 -9999 -9999 -9999 -9999 23375.1 55722.5 7117.31 101654 26943.5 5095.06 55443.2 31762.2 18533.9 8278.69 13352.2 3702.2 6814.35 1001.2 19527.9 1.10244e+06 21756.4 38565.7 20649.3 41713.4 97129.5 123706 158941 79215.1 35537.8 44899.2 278106 625551 1.17553e+06 5.14224e+06 3.27853e+06 1.50569e+06 505550 113323 360741 204436 844497 1.606e+06 1.43872e+06 1.95793e+06 1.3827e+06 1.82893e+06 1.03441e+06 -9999 1460.29 -9999 -9999 -9999 -9999 -9999 -9999 -9999 -9999 -9999 -9999 -9999 -9999 -9999 -9999 -9999
-9999 -9999 -9999 -9999 -9999 -9999 -9999 -9999 -9999 -9999 -9999 -9999 -9999 -9999 -9999 -9999 -9999 -9999 -9999 -9999 15814.3 118477 163811 272920 145954 -9999 -9999 -9999 -9999 831.958 919.769 132.972 -9999 -9999 -9999 -9999 -9999 -9999 -9999 -9999 -9999 -9999 -9999 -9999 -9999 -9999 -9999 -9999 -9999 0.0174992 654.797 324.822 2159.97 796.399 2142.26 4313.11 4563.13 3363.41 4920.69 1802.04 1079.79 414.17 999.566 477320 1284.34 36439.2 51456.4 139402 110707 21466.3 41969.2 87012.4 20949 17291.6 367515 828492 2.05949e+06 3.1421e+06 4.85045e+06 7.38993e+06 5.93898e+06 1.84851e+06 289402 236376 600540 720315 1.08216e+06 1.5781e+06 1.69604e+06 884503 71534.6 761.893 888.875 -9999 -9999 -9999 -9999 -9999 -9999 -9999 -9999 -9999 -9999 -9999 -9999 -9999 -9999 -9999
-9999 -9999 -9999 -9999 -9999 0.00408735 0.10905 0.163309 -9999 -9999 -9999 -9999 -9999 -9999 -9999 -9999 -9999 -9999 -9999 -9999 246.568 1284.1 490650 1.36571e+06 779678 410.258 13563.6 200324 177.747 1154.96 503.802 398.189 6.95723 -9999 -9999 -9999 -9999 -9999 -9999 -9999 -9999 -9999 -9999 -9999 -9999 -9999 -9999 -9999 164.287 1236.21 429.989 968.886 3183.55 6813.85 6097.98 189.779 349.916 539.56 423.172 726.022 776.061 3092.63 5978.72 19146.3 53863.5 77868.1 177038 42972.2 13063.4 55.2813 8966.73 55032.3 -9999 -9999 204837 1.52179e+06 2.65729e+06 2.24105e+06 1.38342e+06 2.61429e+06 2.87295e+06 788651 229422 112601 240725 202513 520675 1.26403e+06 855486 3631.19 28301.3 -9999 -9999 -9999 -9999 -9999 -9999 -9999 -9999 -9999 -9999 -9999 -9999 -9999 -9999 -9999 -9999 -9999
-9999 -9999 -9999 -9999 -9999 -9999 -9999 0.175449 -9999 -9999 -9999 -9999 -9999 -9999 -9999 -9999 -9999 -9999 -9999 -9999 -9999 -9999 185666 688788 1.77701e+06 406228 136856 34734.2 -9999 -9999 28.4289 95.2554 5095.14 2322.75 8.33546 2120.76 -9999 -9999 -9999 -9999 -9999 -9999 -9999 -9999 -9999 -9999 0 0 -9999 9539.71 8207.99 4196.69 748.431 5410.81 28126.4 5554.18 1248.17 241.857 295.558 885.03 782.65 779.851 5833.48 14626.6 76701 31952.2 108919 76664.5 6046.32 10220 11984.2 973.521 -9999 -9999 -9999 236310 2.78319e+06 2.90465e+06 1.91955e+06 620256 -9999 68.6991 325048 120128 83143.3 73609.1 338460 193346 -9999 -9999 10640.1 -9999 -9999 -9999 -9999 -9999 -9999 -9999 -9999 -9999 -9999 -9999 -9999 -9999 -9999 -9999 -9999 -9999
-9999 -9999 -9999 -9999 -9999 -9999 -9999 -9999 -9999 -9999 -9999 -9999 -9999 -9999 -9999 -9999 -9999 -9999 -9999 -9999 -9999 -9999 -9999 -9999 119525 126794 170890 80248.1 19312.8 17.957 -9999 -9999 -9999 -9999 -9999 13427 -9999 -9999 -9999 -9999 -9999 -9999 -9999 -9999 -9999 -9999 0 0 4023.34 12155.3 25624.8 23246.5 49969.5 37493.4 59508.6 23408.6 42631.4 11957.2 10880.4 10345 29257.9 71386.3 85730 264763 235008 54441.5 148791 607608 60087.7 9105.94 -9999 -9999 -9999 -9999 -9999 178.536 1.9668e+06 2.84517e+06 482769 -9999 -9999 328.261 63944.9 85307.5 228346 112024 46732.5 -9999 -9999 1033.62 43590.9 1532.55 -9999 -9999 -9999 -9999 -9999 -9999 -9999 -9999 -9999 -9999 -9999 -9999 -9999 -9999 -9999 -9999
-9999 -9999 -9999 -9999 -9999 -9999 -9999 -9999 -9999 -9999 -9999 -9999 -9999 -9999 -9999 -9999 -9999 -9999 -9999 -9999 -9999 -9999 -9999 -9999 -9999 -9999 -9999 13744.5 109414 170.421 -9999 91147.6 26491.3 49101.5 18811.8 7962.6 7.49991 -9999 -9999 -9999 -9999 -9999 -9999 -9999 -9999 -9999 -9999 -9999 51.3195 32331.4 50833.5 54973.9 66267.7 143729 125842 45796.9 97107.1 36015.4 67210.7 26774.1 38612.7 76209 146812 218460 162187 87591.5 37153.9 129003 6499.56 3220.84 15205.1 -9999 -9999 -9999 -9999 -9999 1.58006e+06 5.51201e+06 143432 -9999 -9999 5997.45 -9999 56972.4 51767.7 467493 74551.2 -9999 -9999 437.66 8199.28 11020.3 -9999 -9999 -9999 -9999 -9999 -9999 -9999 -9999 -9999 -9999 -9999 -9999 -9999 -9999 -9999 -9999
-9999 -9999 -9999 -9999 -9999 -9999 -9999 -9999 -9999 -9999 -9999 -9999 -9999 -9999 -9999 -9999 -9999 -9999 -9999 -9999 -9999 -9999 -9999 -9999 -9999 -9999 -9999 -9999 73456.8 29115.3 32736.5 259784 88183.8 41948.9 24934.7 7192.98 1819.41 -9999 -9999 -9999 -9999 -9999 -9999 -9999 -9999 -9999 -9999 -9999 -9999 3562.92 36799.2 72188.5 40489.2 70546 298007 79595.1 55922.4 32776.4 59817.7 42494.6 4784.82 65856.1 142862 67990.8 55864.8 121335 33924.4 43830.2 16583.5 1761.17 -9999 -9999 -9999 -9999 -9999 -9999 273600 1.65572e+06 197197 -9999 -9999 53.5133 977.491 31422.1 15944.2 29596.5 0 -9999 0.497054 535.605 4606.38 14535.2 -9999 -9999 -9999 -9999 -9999 -9999 -9999 -9999 -9999 -9999 -9999 -9999 -9999 -9999 -9999 -9999
-9999 -9999 -9999 -9999 -9999 -9999 -9999 -9999 -9999 -9999 -9999 -9999 -9999 -9999 -9999 -9999 -9999 -9999 -9999 -9999 -9999 -9999 -9999 -9999 -9999 -9999 -9999 -9999 -9999 -9999 37170.5 511111 62508.2 2047.2 6023.42 18002.2 5026.18 3481.06 6337.56 -9999 -9999 -9999 -9999 -9999 -9999 -9999 -9999 -9999 -9999 -9999 38251.7 57418.4 61967.9 102087 148915 59026.7 131024 82396 31492.7 54288.5 28374.5 12831.7 62681.5 120744 78007.4 42368.5 27245.7 30873.7 12091.4 -9999 -9999 -9999 -9999 -9999 -9999 -9999 -9999 942.699 66025.4 -9999 -9999 -9999 11722 30804.7 16399.6 46.4373 268.404 2.92444 1188.31 998.171 1532.05 2809.26 1126.33 -9999 -9999 -9999 -9999 -9999 -9999 -9999 -9999 -9999 -9999 -9999 -9999 -9999 -9999 -9999
-9999 -9999 -9999 -9999 -9999 -9999 -9999 -9999 -9999 -9999 -9999 -9999 -9999 -9999 -9999 -9999 -9999 -9999 -9999 -9999 -9999 -9999 -9999 -9999 -9999 -9999 8.55777 -9999 -9999 230.739 97426.6 69917 8112.07 49063.2 40686.9 67311.6 9418.87 4999.97 74205.9 166.79 -9999 -9999 -9999 -9999 -9999 -9999 -9999 -9999 -9999 -9999 -9999 -9999 -9999 -9999 -9999 66.2441 4367.17 24882.6 10917.5 9999.79 17907.5 11950.8 18232 52130.5 46965.8 10078.7 23386.9 61281 129.771 -9999 -9999 -9999 -9999 -9999 -9999 -9999 -9999 -9999 -9999 -9999 -9999 -9999 570.045 87047 26728.1 2090.8 4500.21 11757.5 7678.53 3061.92 11599.4 13956.5 9198.94 -9999 -9999 -9999 -9999 -9999 -9999 -9999 -9999 -9999 -9999 -9999 -9999 -9999 -9999 -9999
-9999 -9999 -9999 -9999 -9999 -9999 -9999 -9999 -9999 -9999 -9999 -9999 -9999 -9999 -9999 -9999 -9999 -9999 -9999 -9999 -9999 -9999 -9999 -9999 -9999 -9999 118.383 12.8367 -9999 25733.7 125401 13141.9 5974.81 61547.5 92352.5 77424.3 79583.5 15219.3 35145.1 14325.7 14563.7 12885.2 2676.95 -9999 -9999 -9999 -9999 -9999 -9999 -9999 -9999 -9999 -9999 -9999 -9999 -9999 2121.8 10490.4 6053.31 15530.6 17803.4 12032.2 41534.8 31230.1 42973.8 34875.9 6688.14 -9999 -9999 -9999 -9999 -9999 -9999 -9999 -9999 -9999 -9999 -9999 -9999 -9999 -9999 -9999 -9999 6636.69 68215.1 39739.5 7055.21 14822.1 27142.6 31181.3 26808.6 1665.77 4770.19 5779.56 3992.23 5495.91 3814.38 480.058 3668.3 25494.8 -9999 -9999 -9999 -9999 -9999 -9999 -9999 -9999
-9999 -9999 -9999 -9999 -9999 -9999 -9999 -9999 -9999 -9999 -9999 -9999 -9999 -9999 -9999 -9999 -9999 -9999 -9999 -9999 -9999 -9999 -9999 -9999 -9999 -9999 -9999 -9999 -9999 70657.1 145729 11424.9 46170.9 81259.3 81707.5 122094 59051.7 10605.8 13730.5 39571.8 34569.9 90211.7 218507 129474 -9999 -9999 -9999 -9999 -9999 -9999 -9999 -9999 -9999 -9999 -9999 -9999 -9999 11531.6 35806 10690.6 19596.2 15249.7 16725.6 13110.8 17897.8 44884.9 1.32912 -9999 -9999 -9999 -9999 -9999 -9999 -9999 -9999 -9999 -9999 -9999 -9999 -9999 -9999 -9999 -9999 -9999 13059.6 117708 147871 13532 9561.53 29294.2 29154.8 525.223 1334.26 1386.47 4375.04 8437.68 75762.5 191508 28338 46892.8 6666.68 -9999 -9999 -9999 -9999 -9999 -9999 -9999
-9999 -9999 -9999 -9999 -9999 -9999 -9999 -9999 -9999 -9999 -9999 -9999 -9999 -9999 -9999 -9999 -9999 -9999 -9999 -9999 -9999 -9999 -9999 -9999 -9999 -9999 -9999 -9999 -9999 56.2051 279645 46286.4 104821 101209 77549.2 73827.8 26840.8 9367.14 10548.5 52877.1 68015.4 177998 550016 439706 -9999 -9999 -9999 -9999 -9999 -9999 -9999 -9999 -9999 -9999 -9999 -9999 -9999 2791.86 12642.7 5741.13 8296.1 11038.7 7324.44 8274.51 12551.5 16154.1 -9999 -9999 -9999 -9999 -9999 -9999 -9999 -9999 -9999 -9999 -9999 -9999 -9999 -9999 -9999 -9999 -9999 -9999 -9999 33957.1 326316 538245 179708 28808.2 18039.9 15831.3 7040.89 951.005 257.734 1925.01 23619.9 88934 52983.3 34466.4 882.798 1.17245 1.56134 -9999 -9999 -9999 -9999 -9999
-9999 -9999 -9999 -9999 -9999 -9999 -9999 -9999 -9999 -9999 -9999 -9999 -9999 -9999 -9999 -9999 -9999 -9999 -9999 -9999 -9999 -9999 -9999 -9999 -9999 -9999 -9999 -9999 -9999 -9999 116006 262869 54238.3 41257.2 20274 52931.5 16405.7 26545.7 27100.7 54547 63645.5 87417.3 144757 31935.3 -9999 -9999 -9999 -9999 -9999 -9999 -9999 -9999 -9999 -9999 -9999 -9999 -9999 529.816 18142.5 7917.26 2591.74 5524.42 9940.23 6097.31 7883.36 12621.8 1807.94 0 9.21345 -9999 -9999 -9999 -9999 -9999 -9999 -9999 -9999 -9999 -9999 -9999 -9999 -9999 -9999 -9999 -9999 -9999 -9999 -9999 -9999 -9999 1569.61 2969.61 -9999 4335.3 1819.85 39.237 786.453 15.3719 9933.06 11519.9 2234.06 -9999 0.255773 0.135465 0.0525296 -9999 -9999 -9999
0 -9999 10.3585 -9999 -9999 -9999 -9999 -9999 -9999 -9999 -9999 -9999 -9999 -9999 -9999 -9999 -9999 -9999 -9999 -9999 -9999 -9999 -9999 -9999 -9999 -9999 -9999 -9999 -9999 -9999 -9999 150387 257901 102305 20083.6 9792.41 19442.7 20579.9 48920.4 81526.4 73585.8 114490 35557.3 -9999 -9999 -9999 -9999 -9999 -9999 -9999 -9999 -9999 -9999 -9999 -9999 -9999 -9999 753.58 8413.6 1277.82 2865.67 3766.54 10670.2 10008.4 22565.3 16505 2352.53 2.99226 49.4345 6.42956 -9999 -9999 -9999 -9999 -9999 -9999 -9999 -9999 -9999 -9999 -9999 -9999 -9999 -9999 -9999 -9999 -9999 -9999 -9999 -9999 29.1467 1383.78 3435.95 7801.54 3823.4 154.802 1483.14 1437.47 -9999 -9999 -9999 -9999 -9999 0.307086 10.3213 -9999 -9999 1243.25
0 179.093 -9999 -9999 -9999 -9999 -9999 -9999 -9999 -9999 -9999 -9999 -9999 -9999 -9999 -9999 -9999 -9999 -9999 -9999 -9999 -9999 -9999 -9999 -9999 -9999 -9999 -9999 -9999 -9999 -9999 -9999 34041.3 68802.6 81406.4 10717.9 11643.1 20220 60304.6 94142.1 97220.8 238316 29715.6 -9999 -9999 -9999 -9999 -9999 -9999 -9999 -9999 -9999 -9999 -9999 -9999 -9999 -9999 225.833 17338.4 11827.6 2417.95 3901.62 3569.64 24785.4 8986.93 2368.6 -9999 47.8738 115.169 -9999 -9999 -9999 -9999 -9999 -9999 -9999 -9999 -9999 -9999 -9999 -9999 -9999 -9999 -9999 -9999 -9999 -9999 -9999 -9999 24.6052 2377.43 7338.97 4845.82 2810.34 9350.84 3035.39 2009.4 3286.18 590.315 -9999 -9999 -9999 -9999 -9999 4.91206 -9999 -9999 9236.39
-9999 754.02 -9999 -9999 -9999 -9999 -9999 -9999 -9999 -9999 -9999 -9999 -9999 -9999 -9999 -9999 -9999 -9999 -9999 -9999 -9999 -9999 -9999 -9999 -9999 -9999 -9999 -9999 -9999 -9999 -9999 -9999 85.3274 22956 34788.1 10743.2 10380.2 42612.3 67450.6 89001.9 243391 393585 -9999 -9999 -9999 -9999 -9999 -9999 -9999 -9999 -9999 -9999 -9999 -9999 -9999 -9999 -9999 0 2477.97 6258.07 1278.61 4782.04 16168.5 13853.6 3282.62 -9999 0 44.8812 76.3365 -9999 0 0 -9999 -9999 -9999 -9999 -9999 -9999 -9999 -9999 -9999 -9999 -9999 -9999 -9999 -9999 -9999 -9999 4986.51 9555.01 3679.58 376.693 378.117 1437.63 3496.35 3566.59 1779.88 3533.51 5127.76 566.29 -9999 -9999 -9999 3126.09 453.762 -9999 -9999 -9999
-9999 -9999 -9999 -9999 -9999 -9999 -9999 -9999 -9999 -9999 -9999 -9999 -9999 -9999 -9999 -9999 -9999 -9999 -9999 -9999 -9999 -9999 -9999 -9999 -9999 -9999 -9999 -9999 -9999 -9999 -9999 -9999 546.498 1887.98 6610.15 2260.78 9521.03 38164 123118 77308.1 10107.9 -9999 -9999 -9999 -9999 -9999 -9999 -9999 -9999 -9999 -9999 -9999 -9999 -9999 -9999 -9999 -9999 -9999 1113.01 2870.4 1179.02 13540.6 25044 21735.2 2402.53 -9999 -9999 31.3614 6.93369 -9999 -9999 -9999 -9999 -9999 -9999 -9999 -9999 -9999 -9999 -9999 -9999 -9999 -9999 -9999 -9999 -9999 -9999 28.2508 2065.34 2371.48 1732.11 1287.77 1273.91 2192.95 2064.23 202.675 699.302 2363.8 4913.53 4401.76 0 -9999 -9999 -9999 -9999 -9999 -9999 -9999
-9999 -9999 -9999 -9999 -9999 -9999 -9999 -9999 -9999 -9999 -9999 -9999 -9999 -9999 -9999 -9999 -9999 -9999 -9999 -9999 -9999 -9999 -9999 -9999 -9999 -9999 -9999 -9999 -9999 -9999 -9999 -9999 5102.86 3645.11 9838.95 4364.07 9689.88 97562.7 173206 49153.8 -9999 -9999 -9999 -9999 -9999 -9999 -9999 -9999 -9999 -9999 -9999 -9999 -9999 -9999 -9999 -9999 -9999 -9999 246.432 1229.02 531.682 2809.6 17074.2 17363.1 -9999 -9999 -9999 -9999 -9999 -9999 -9999 -9999 -9999 -9999 -9999 -9999 -9999 -9999 -9999 -9999 -9999 -9999 -9999 -9999 -9999 -9999 -9999 -9999 5209.59 1485.4 3078.86 481.073 237.271 472.551 248.262 106.346 292.208 1323.87 5203.14 6084.14 182.16 -9999 -9999 -9999 -9999 -9999 -9999 -9999
-9999 -9999 -9999 -9999 -9999 -9999 -9999 -9999 -9999 -9999 -9999 -9999 -9999 -9999 -9999 -9999 -9999 -9999 -9999 -9999 -9999 -9999 -9999 -9999 -9999 -9999 -9999 -9999 -9999 -9999 -9999 -9999 33982.3 4679.62 6228.25 8383.96 7973.91 46426.6 47330.7 -9999 -9999 -9999 -9999 -9999 -9999 -9999 -9999 -9999 -9999 -9999 -9999 -9999 -9999 -9999 -9999 -9999 -9999 -9999 -9999 2853.08 2575.87 5392.33 10793.3 1526.54 -9999 -9999 -9999 -9999 -9999 -9999 -9999 -9999 -9999 -9999 -9999 -9999 -9999 -9999 -9999 -9999 -9999 -9999 -9999 -9999 -9999 -9999 -9999 -9999 6745.42 10853.7 3934.82 1006.17 400.078 370.174 1994.54 2949.58 276.18 1326.65 3955.58 2867.06 -9999 -9999 -9999 -9999 -9999 -9999 -9999 -9999
-9999 -9999 -9999 -9999 -9999 -9999 -9999 -9999 -9999 -9999 -9999 -9999 -9999 -9999 -9999 -9999 -9999 -9999 -9999 -9999 -9999 -9999 -9999 -9999 -9999 -9999 -9999 -9999 -9999 -9999 -9999 -9999 98231.6 3428.8 4080.95 7722.55 15566.9 3268.26 496.476 -9999 -9999 -9999 -9999 -9999 -9999 -9999 -9999 -9999 -9999 -9999 -9999 -9999 -9999 -9999 -9999 -9999 -9999 -9999 -9999 1470.7 2512.65 2137.08 161.468 -9999 -9999 -9999 -9999 -9999 -9999 -9999 -9999 -9999 -9999 -9999 -9999 -9999 -9999 -9999 -9999 -9999 -9999 -9999 -9999 -9999 -9999 -9999 -9999 -9999 4793.57 4794.21 2169.79 9.3506 -9999 -9999 1035.26 7967.33 6862.83 6091.37 4882.88 1072.36 -9999 -9999 -9999 -9999 -9999 0 0 -9999
-9999 -9999 -9999 -9999 -9999 -9999 -9999 -9999 -9999 -9999 -9999 -9999 -9999 -9999 -9999 -9999 -9999 -9999 -9999 -9999 -9999 -9999 -9999 -9999 -9999 -9999 -9999 -9999 -9999 -9999 -9999 3372.24 42162.4 333.715 652.077 5207.44 2194.45 -9999 -9999 -9999 -9999 -9999 -9999 -9999 -9999 -9999 -9999 -9999 -9999 -9999 -9999 -9999 -9999 -9999 -9999 -9999 -9999 -9999 -9999 -9999 -9999 -9999 -9999 -9999 -9999 -9999 -9999 -9999 -9999 -9999 -9999 -9999 -9999 -9999 -9999 -9999 -9999 -9999 -9999 -9999 -9999 -9999 -9999 -9999 -9999 -9999 -9999 -9999 -9999 -9999 -9999 -9999 -9999 -9999 -9999 124.108 4316.89 5804.89 2812.2 -9999 -9999 -9999 -9999 -9999 -9999 -9999 0 0
-9999 -9999 -9999 -9999 -9999 -9999 -9999 -9999 -9999 -9999 -9999 -9999 -9999 -9999 -9999 -9999 -9999 -9999 -9999 -9999 -9999 -9999 -9999 -9999 -9999 -9999 -9999 -9999 -9999 -9999 -9999 4286.78 5542.64 11.5955 53.2947 376.34 -9999 -9999 -9999 -9999 -9999 -9999 -9999 -9999 -9999 -9999 -9999 -9999 -9999 -9999 -9999 -9999 -9999 -9999 -9999 -9999 -9999 -9999 -9999 -9999 -9999 -9999 -9999 -9999 -9999 -9999 -9999 -9999 -9999 -9999 -9999 -9999 -9999 -9999 -9999 -9999 -9999 -9999 -9999 -9999 -9999 -9999 -9999 -9999 -9999 -9999 -9999 -9999 -9999 -9999 -9999 -9999 -9999 -9999 -9999 -9999 -9999 4317.97 5330.41 -9999 -9999 -9999 -9999 -9999 -9999 0 0 0
0 0 -9999 -9999 -9999 -9999 -9999 -9999 -9999 -9999 -9999 -9999 -9999 -9999 -9999 -9999 -9999 -9999 -9999 -9999 -9999 -9999 -9999 -9999 -9999 -9999 -9999 -9999 -9999 -9999 -9999 195.641 808.399 21.3282 6.04602 -9999 -9999 -9999 -9999 -9999 -9999 -9999 -9999 -9999 -9999 -9999 -9999 -9999 -9999 -9999 -9999 -9999 -9999 -9999 -9999 -9999 -9999 -9999 -9999 -9999 -9999 -9999 -9999 -9999 -9999 -9999 -9999 -9999 -9999 -9999 -9999 -9999 -9999 -9999 -9999 -9999 -9999 -9999 -9999 -9999 -9999 -9999 -9999 -9999 -9999 -9999 -9999 -9999 -9999 -9999 -9999 -9999 -9999 -9999 -9999 -9999 -9999 111.08 128.968 -9999 -9999 -9999 -9999 0 0 0 -9999 -9999
-9999 -9999 -9999 -9999 -9999 -9999 -9999 -9999 -9999 -9999 -9999 -9999 -9999 -9999 -9999 -9999 -9999 -9999 -9999 -9999 -9999 -9999 -9999 -9999 -9999 -9999 -9999 -9999 -9999 -9999 -9999 64.7276 53.8686 15.4716 2.02529 -9999 -9999 -9999 -9999 -9999 -9999 -9999 -9999 -9999 -9999 -9999 -9999 -9999 -9999 -9999 -9999 -9999 -9999 -9999 -9999 -9999 -9999 -9999 -9999 -9999 -9999 -9999 -9999 -9999 -9999 -9999 -9999 -9999 -9999 -9999 -9999 -9999 -9999 -9999 -9999 -9999 -9999 -9999 -9999 -9999 -9999 -9999 -9999 -9999 -9999 -9999 -9999 -9999 -9999 -9999 -9999 -9999 -9999 -9999 -9999 -9999 -9999 -9999 -9999 -9999 -9999 -9999 -9999 -9999 0 -9999 -9999 -9999
-9999 -9999 -9999 -9999 -9999 -9999 -9999 -9999 -9999 -9999 -9999 -9999 -9999 -9999 -9999 -9999 -9999 -9999 -9999 -9999 -9999 -9999 -9999 -9999 -9999 -9999 -9999 -9999 -9999 -9999 -9999 8.46315 53.6985 12.879 -9999 0 0 -9999 -9999 -9999 -9999 -9999 -9999 -9999 -9999 -9999 -9999 -9999 -9999 -9999 -9999 -9999 -9999 -9999 -9999 -9999 -9999 -9999 -9999 -9999 -9999 -9999 -9999 -9999 -9999 -9999 -9999 -9999 -9999 -9999 -9999 -9999 -9999 -9999 -9999 -9999 -9999 -9999 -9999 -9999 -9999 -9999 -9999 -9999 -9999 -9999 -9999 -9999 -9999 -9999 -9999 -9999 -9999 -9999 -9999 -9999 -9999 -9999 -9999 -9999 -9999 -9999 -9999 -9999 -9999 -9999 -9999 -9999
-9999 -9999 -9999 -9999 -9999 -9999 -9999 -9999 -9999 -9999 -9999 -9999 -9999 -9999 -9999 -9999 -9999 -9999 -9999 -9999 -9999 -9999 -9999 -9999 -9999 -9999 -9999 -9999 -9999 -9999 -9999 0 1.94558 49.533 9.00579 -9999 -9999 -9999 -9999 -9999 -9999 -9999 -9999 -9999 -9999 -9999 -9999 -9999 -9999 -9999 -9999 -9999 -9999 -9999 -9999 -9999 -9999 -9999 -9999 -9999 -9999 -9999 -9999 -9999 -9999 -9999 -9999 -9999 -9999 -9999 -9999 -9999 -9999 -9999 -9999 -9999 -9999 -9999 -9999 -9999 -9999 -9999 -9999 -9999 -9999 -9999 -9999 -9999 -9999 -9999 -9999 -9999 -9999 -9999 -9999 -9999 -9999 -9999 -9999 -9999 -9999 -9999 -9999 -9999 -9999 -9999 -9999 -9999
-9999 -9999 -9999 -9999 -9999 -9999 -9999 -9999 -9999 -9999 -9999 -9999 -9999 -9999 -9999 -9999 -9999 -9999 -9999 -9999 -9999 -9999 -9999 -9999 -9999 -9999 -9999 -9999 -9999 -9999 -9999 -9999 -9999 -9999 -9999 -9999 -9999 -9999 -9999 -9999 -9999 -9999 -9999 -9999 -9999 -9999 -9999 -9999 -9999 -9999 -9999 -9999 -9999 -9999 -9999 -9999 -9999 -9999 -9999 -9999 -9999 -9999 -9999 -9999 -9999 -9999 -9999 -9999 -9999 -9999 -9999 -9999 -9999 -9999 -9999 -9999 -9999 -9999 -9999 -9999 -9999 -9999 -9999 -9999 -9999 -9999 -9999 -9999 -9999 -9999 -9999 -9999 -9999 -9999 -9999 -9999 -9999 -9999 -9999 -9999 -9999 -9999 -9999 -9999 -9999 -9999 -9999 -9999
-9999 -9999 -9999 -9999 -9999 -9999 -9999 -9999 -9999 -9999 -9999 -9999 -9999 -9999 -9999 -9999 -9999 -9999 -9999 -9999 -9999 -9999 -9999 -9999 -9999 -9999 -9999 -9999 -9999 -9999 -9999 -9999 -9999 -9999 -9999 -9999 -9999 -9999 -9999 -9999 -9999 -9999 -9999 -9999 -9999 -9999 -9999 -9999 -9999 -9999 -9999 -9999 -9999 -9999 -9999 -9999 -9999 -9999 -9999 -9999 -9999 -9999 -9999 -9999 -9999 -9999 -9999 -9999 -9999 -9999 -9999 -9999 -9999 -9999 -9999 -9999 -9999 -9999 -9999 -9999 -9999 -9999 -9999 -9999 -9999 -9999 -9999 -9999 -9999 -9999 -9999 -9999 -9999 -9999 -9999 -9999 -9999 -9999 -9999 -9999 -9999 -9999 -9999 -9999 -9999 -9999 -9999 -9999
-9999 -9999 -9999 -9999 -9999 -9999 -9999 -9999 -9999 -9999 -9999 -9999 -9999 -9999 -9999 -9999 -9999 -9999 -9999 -9999 -9999 -9999 -9999 -9999 -9999 -9999 -9999 -9999 -9999 -9999 -9999 -9999 -9999 -9999 -9999 -9999 -9999 -9999 -9999 -9999 -9999 -9999 -9999 -9999 -9999 -9999 -9999 -9999 -9999 -9999 -9999 -9999 -9999 -9999 -9999 -9999 -9999 -9999 -9999 -9999 -9999 -9999 -9999 -9999 -9999 -9999 -9999 -9999 -9999 -9999 -9999 -9999 -9999 -9999 -9999 -9999 -9999 -9999 -9999 -9999 -9999 -9999 -9999 -9999 -9999 -9999 -9999 -9999 -9999 -9999 -9999 -9999 -9999 -9999 -9999 -9999 -9999 -9999 -9999 -9999 -9999 -9999 -9999 -9999 -9999 -9999 -9999 -9999
-9999 -9999 -9999 -9999 -9999 -9999 -9999 -9999 -9999 -9999 -9999 -9999 -9999 -9999 -9999 -9999 -9999 -9999 -9999 -9999 -9999 -9999 -9999 -9999 -9999 -9999 -9999 -9999 -9999 -9999 -9999 -9999 -9999 -9999 -9999 -9999 -9999 -9999 -9999 -9999 -9999 -9999 -9999 -9999 -9999 -9999 -9999 -9999 -9999 -9999 -9999 -9999 -9999 -9999 -9999 -9999 -9999 -9999 -9999 -9999 -9999 -9999 -9999 -9999 -9999 -9999 -9999 -9999 -9999 -9999 -9999 -9999 -9999 -9999 -9999 -9999 -9999 -9999 -9999 -9999 -9999 -9999 -9999 -9999 -9999 -9999 -9999 -9999 -9999 -9999 -9999 -9999 -9999 -9999 -9999 -9999 -9999 -9999 -9999 -9999 -9999 -9999 -9999 -9999 -9999 -9999 -9999 -9999
-9999 -9999 -9999 -9999 -9999 -9999 -9999 -9999 -9999 -9999 -9999 -9999 -9999 -9999 -9999 -9999 -9999 -9999 -9999 -9999 -9999 -9999 -9999 -9999 -9999 -9999 -9999 -9999 -9999 -9999 -9999 -9999 -9999 -9999 -9999 -9999 -9999 -9999 -9999 -9999 -9999 -9999 -9999 -9999 -9999 -9999 -9999 -9999 -9999 -9999 -9999 -9999 -9999 -9999 -9999 -9999 -9999 -9999 -9999 -9999 -9999 -9999 -9999 -9999 -9999 -9999 -9999 -9999 -9999 -9999 -9999 -9999 -9999 -9999 -9999 -9999 -9999 -9999 -9999 -9999 -9999 -9999 -9999 -9999 -9999 -9999 -9999 -9999 -9999 -9999 -9999 -9999 -9999 -9999 -9999 -9999 -9999 -9999 -9999 -9999 -9999 -9999 -9999 -9999 -9999 -9999 -9999 -9999
-9999 -9999 -9999 -9999 -9999 -9999 -9999 -9999 -9999 -9999 -9999 -9999 -9999 -9999 -9999 -9999 -9999 -9999 -9999 -9999 -9999 -9999 -9999 -9999 -9999 -9999 -9999 -9999 -9999 -9999 -9999 -9999 -9999 -9999 -9999 -9999 -9999 -9999 -9999 -9999 -9999 -9999 -9999 -9999 -9999 -9999 -9999 -9999 -9999 -9999 -9999 -9999 -9999 -9999 -9999 -9999 -9999 -9999 -9999 -9999 -9999 -9999 -9999 -9999 -9999 -9999 -9999 -9999 -9999 -9999 -9999 -9999 -9999 -9999 -9999 -9999 -9999 -9999 -9999 -9999 -9999 -9999 -9999 -9999 -9999 -9999 -9999 -9999 -9999 -9999 -9999 -9999 -9999 -9999 -9999 -9999 -9999 -9999 -9999 -9999 -9999 -9999 -9999 -9999 -9999 -9999 -9999 -9999
-9999 -9999 -9999 -9999 -9999 -9999 -9999 -9999 -9999 -9999 -9999 -9999 -9999 -9999 -9999 -9999 -9999 -9999 -9999 -9999 -9999 -9999 -9999 -9999 -9999 -9999 -9999 -9999 -9999 -9999 -9999 -9999 -9999 -9999 -9999 -9999 -9999 -9999 -9999 -9999 -9999 -9999 -9999 -9999 -9999 -9999 -9999 -9999 -9999 -9999 -9999 -9999 -9999 -9999 -9999 -9999 -9999 -9999 -9999 -9999 -9999 -9999 -9999 -9999 -9999 -9999 -9999 -9999 -9999 -9999 -9999 -9999 -9999 -9999 -9999 -9999 -9999 -9999 -9999 -9999 -9999 -9999 -9999 -9999 -9999 -9999 -9999 -9999 -9999 -9999 -9999 -9999 -9999 -9999 -9999 -9999 -9999 -9999 -9999 -9999 -9999 -9999 -9999 -9999 -9999 -9999 -9999 -9999
-9999 -9999 -9999 -9999 -9999 -9999 -9999 -9999 -9999 -9999 -9999 -9999 -9999 -9999 -9999 -9999 -9999 -9999 -9999 -9999 -9999 -9999 -9999 -9999 -9999 -9999 -9999 -9999 -9999 -9999 -9999 -9999 -9999 -9999 -9999 -9999 -9999 -9999 -9999 -9999 -9999 -9999 -9999 -9999 -9999 -9999 -9999 -9999 -9999 -9999 -9999 -9999 -9999 -9999 -9999 -9999 -9999 -9999 -9999 -9999 -9999 -9999 -9999 -9999 -9999 -9999 -9999 -9999 -9999 -9999 -9999 -9999 -9999 -9999 -9999 -9999 -9999 -9999 -9999 -9999 -9999 -9999 -9999 -9999 -9999 -9999 -9999 -9999 -9999 -9999 -9999 -9999 -9999 -9999 -9999 -9999 -9999 -9999 -9999 -9999 -9999 -9999 -9999 -9999 -9999 -9999 -9999 -9999
-9999 -9999 -9999 -9999 -9999 -9999 -9999 -9999 -9999 -9999 -9999 -9999 -9999 -9999 -9999 -9999 -9999 -9999 -9999 -9999 -9999 -9999 -9999 -9999 -9999 -9999 -9999 -9999 -9999 -9999 -9999 -9999 -9999 -9999 -9999 -9999 -9999 -9999 -9999 -9999 -9999 -9999 -9999 -9999 -9999 -9999 -9999 -9999 -9999 -9999 -9999 -9999 -9999 -9999 -9999 -9999 -9999 -9999 -9999 -9999 -9999 -9999 -9999 -9999 -9999 -9999 -9999 -9999 -9999 -9999 -9999 -9999 -9999 -9999 -9999 -9999 -9999 -9999 -9999 -9999 -9999 -9999 -9999 -9999 -9999 -9999 -9999 -9999 -9999 -9999 -9999 -9999 -9999 -9999 -9999 -9999 -9999 -9999 -9999 -9999 -9999 -9999 -9999 -9999 -9999 -9999 -9999 -9999
-9999 -9999 -9999 -9999 -9999 -9999 -9999 -9999 -9999 -9999 -9999 -9999 -9999 -9999 -9999 -9999 -9999 -9999 -9999 -9999 -9999 -9999 -9999 -9999 -9999 -9999 -9999 -9999 -9999 -9999 -9999 -9999 -9999 -9999 -9999 -9999 -9999 -9999 -9999 -9999 -9999 -9999 -9999 -9999 -9999 -9999 -9999 -9999 -9999 -9999 -9999 -9999 -9999 -9999 -9999 -9999 -9999 -9999 -9999 -9999 -9999 -9999 -9999 -9999 -9999 -9999 -9999 -9999 -9999 -9999 -9999 -9999 -9999 -9999 -9999 -9999 -9999 -9999 -9999 -9999 -9999 -9999 -9999 -9999 -9999 -9999 -9999 -9999 -9999 -9999 -9999 -9999 -9999 -9999 -9999 -9999 -9999 -9999 -9999 -9999 -9999 -9999 -9999 -9999 -9999 -9999 -9999 -9999
